;FLAVOR:Marlin
;TIME:426
;Filament used: 0.136198m
;Layer height: 0.2
;MINX:91.5
;MINY:96.5
;MINZ:0.2
;MAXX:128.5
;MAXY:123.5
;MAXZ:45
;Generated with Cura_SteamEngine 5.4.0
M82 ;absolute extrusion mode
; Ender 3 S1 Pro Start G-code
; M413 S0 ; Disable power loss recovery
G92 E0 ; Reset Extruder

; Prep surfaces before auto home for better accuracy
M140 S60
M104 S200

G28 O ; Home all untrusted axes
G1 Z10.0 F3000 ; Move Z Axis up little to prevent scratching of Heat Bed
G1 X0 Y0

M190 S60
M109 S200

G1 X0.1 Y20 Z0.3 F5000.0 ; Move to start position
G1 X0.1 Y200.0 Z0.3 F1500.0 E15 ; Draw the first line
G1 X0.4 Y200.0 Z0.3 F5000.0 ; Move to side a little
G1 X0.4 Y20 Z0.3 F1500.0 E30 ; Draw the second line
G92 E0 ; Reset Extruder
G1 Z2.0 F3000 ; Move Z Axis up little to prevent scratching of Heat Bed
G1 X5 Y20 Z0.3 F5000.0 ; Move over to prevent blob squish

G92 E0
G92 E0
G1 F2400 E-0.8
;LAYER_COUNT:225
;LAYER:0
M107
M204 S2000
G0 F7500 X94.956 Y99.513 Z0.2
M204 S500
;TYPE:SKIRT
G1 F2400 E0
G1 F1500 X95.692 Y98.876 E0.03237
G1 X96.424 Y98.346 E0.06243
G1 X97.321 Y97.811 E0.09717
G1 X98.199 Y97.39 E0.12956
G1 X99.112 Y97.048 E0.16198
G1 X100.049 Y96.789 E0.19432
G1 X101.016 Y96.611 E0.22702
G1 X102.155 Y96.515 E0.26504
G1 X102.812 Y96.5 E0.2869
G1 X106.794 Y96.5 E0.41934
G1 X108.77 Y96.527 E0.48507
G1 X111.364 Y96.527 E0.57134
G1 X112.481 Y96.503 E0.6085
G1 X116.802 Y96.5 E0.75222
G1 X117.684 Y96.513 E0.78156
G1 X118.656 Y96.572 E0.81395
G1 X119.619 Y96.718 E0.84634
G1 X120.566 Y96.949 E0.87876
G1 X121.454 Y97.249 E0.90994
G1 X122.346 Y97.639 E0.94232
G1 X123.229 Y98.126 E0.97586
G1 X123.98 Y98.628 E1.0059
G1 X124.795 Y99.286 E1.04074
G1 X125.493 Y99.964 E1.07311
G1 X126.129 Y100.701 E1.10548
G1 X126.699 Y101.491 E1.13788
G1 X127.161 Y102.267 E1.16792
G1 X127.615 Y103.209 E1.2027
G1 X127.944 Y104.087 E1.23389
G1 X128.213 Y105.059 E1.26743
G1 X128.39 Y106.025 E1.3001
G1 X128.485 Y107.155 E1.33781
G1 X128.5 Y107.83 E1.36027
G1 X128.499 Y111.9 E1.49564
G1 X128.488 Y112.663 E1.52102
G1 X128.431 Y113.636 E1.55343
G1 X128.286 Y114.599 E1.58583
G1 X128.057 Y115.545 E1.6182
G1 X127.746 Y116.469 E1.65062
G1 X127.354 Y117.36 E1.683
G1 X126.886 Y118.212 E1.71533
G1 X126.364 Y118.993 E1.74658
G1 X125.731 Y119.778 E1.78012
G1 X125.106 Y120.429 E1.81013
G1 X124.317 Y121.117 E1.84495
G1 X123.557 Y121.667 E1.87615
G1 X122.69 Y122.184 E1.90973
G1 X121.812 Y122.606 E1.94213
G1 X120.901 Y122.948 E1.97449
G1 X119.962 Y123.209 E2.00691
G1 X118.996 Y123.387 E2.03958
G1 X117.845 Y123.485 E2.078
G1 X117.17 Y123.5 E2.10045
G1 X113.059 Y123.499 E2.23719
G1 X111.228 Y123.473 E2.29809
G1 X108.636 Y123.473 E2.3843
G1 X107.519 Y123.497 E2.42146
G1 X103.199 Y123.5 E2.56515
G1 X102.331 Y123.488 E2.59402
G1 X101.359 Y123.431 E2.6264
G1 X100.396 Y123.285 E2.6588
G1 X99.45 Y123.056 E2.69117
G1 X98.526 Y122.744 E2.72361
G1 X97.636 Y122.352 E2.75595
G1 X96.813 Y121.901 E2.78717
G1 X95.974 Y121.34 E2.82074
G1 X95.27 Y120.774 E2.85078
G1 X94.517 Y120.049 E2.88555
G1 X93.88 Y119.313 E2.91792
G1 X93.35 Y118.582 E2.94795
G1 X92.814 Y117.685 E2.98271
G1 X92.392 Y116.807 E3.01511
G1 X92.05 Y115.895 E3.0475
G1 X91.79 Y114.957 E3.07988
G1 X91.612 Y113.988 E3.11265
G1 X91.514 Y112.809 E3.152
G1 X91.5 Y112.158 E3.17365
G1 X91.501 Y108.025 E3.31112
G1 X91.512 Y107.325 E3.3344
G1 X91.57 Y106.352 E3.36682
G1 X91.716 Y105.389 E3.39922
G1 X91.946 Y104.443 E3.4316
G1 X92.259 Y103.52 E3.46401
G1 X92.651 Y102.63 E3.49636
G1 X93.121 Y101.777 E3.52875
G1 X93.664 Y100.969 E3.56113
G1 X94.231 Y100.265 E3.5912
G1 X94.956 Y99.513 E3.62594
M204 S2000
G0 F7500 X95.218 Y99.815
M204 S500
G1 F1500 X95.927 Y99.2 E3.65716
G1 X96.659 Y98.67 E3.68721
G1 X97.495 Y98.171 E3.7196
G1 X98.34 Y97.764 E3.75079
G1 X99.219 Y97.433 E3.78203
G1 X100.122 Y97.182 E3.8132
G1 X101.05 Y97.01 E3.8446
G1 X102.189 Y96.914 E3.88261
G1 X102.821 Y96.9 E3.90364
G1 X106.789 Y96.9 E4.03561
G1 X108.765 Y96.927 E4.10134
G1 X111.373 Y96.927 E4.18809
G1 X112.481 Y96.903 E4.22495
G1 X116.796 Y96.9 E4.36846
G1 X117.66 Y96.912 E4.3972
G1 X118.597 Y96.968 E4.42842
G1 X119.525 Y97.107 E4.45963
G1 X120.438 Y97.328 E4.49088
G1 X121.294 Y97.616 E4.52092
G1 X122.186 Y98.006 E4.5533
G1 X123.007 Y98.459 E4.58448
G1 X123.758 Y98.961 E4.61453
G1 X124.517 Y99.573 E4.64696
G1 X125.191 Y100.226 E4.67817
G1 X125.805 Y100.935 E4.70936
G1 X126.355 Y101.696 E4.74059
G1 X126.817 Y102.472 E4.77063
G1 X127.24 Y103.349 E4.80302
G1 X127.569 Y104.227 E4.8342
G1 X127.82 Y105.132 E4.86544
G1 X127.991 Y106.059 E4.89679
G1 X128.086 Y107.189 E4.93451
G1 X128.1 Y107.83 E4.95583
G1 X128.099 Y111.895 E5.09103
G1 X128.089 Y112.64 E5.11582
G1 X128.035 Y113.577 E5.14703
G1 X127.897 Y114.506 E5.17827
G1 X127.678 Y115.418 E5.20947
G1 X127.38 Y116.308 E5.24068
G1 X127.003 Y117.168 E5.27191
G1 X126.553 Y117.99 E5.30308
G1 X126.031 Y118.771 E5.33433
G1 X125.442 Y119.501 E5.36552
G1 X124.817 Y120.152 E5.39554
G1 X124.082 Y120.793 E5.42798
G1 X123.322 Y121.343 E5.45918
G1 X122.516 Y121.824 E5.4904
G1 X121.671 Y122.232 E5.52161
G1 X120.793 Y122.563 E5.55282
G1 X119.889 Y122.816 E5.58404
G1 X118.962 Y122.988 E5.6154
G1 X117.811 Y123.086 E5.65382
G1 X117.17 Y123.1 E5.67514
G1 X113.065 Y123.099 E5.81167
G1 X111.234 Y123.073 E5.87258
G1 X108.627 Y123.073 E5.95929
G1 X107.519 Y123.097 E5.99615
G1 X103.204 Y123.1 E6.13967
G1 X102.354 Y123.089 E6.16794
G1 X101.418 Y123.035 E6.19912
G1 X100.489 Y122.896 E6.23037
G1 X99.577 Y122.677 E6.26156
G1 X98.687 Y122.378 E6.29279
G1 X97.828 Y122.001 E6.32399
G1 X97.005 Y121.55 E6.3552
G1 X96.225 Y121.028 E6.38642
G1 X95.521 Y120.462 E6.41647
G1 X94.819 Y119.787 E6.44886
G1 X94.204 Y119.078 E6.48007
G1 X93.674 Y118.347 E6.5101
G1 X93.174 Y117.511 E6.5425
G1 X92.766 Y116.666 E6.57371
G1 X92.435 Y115.788 E6.60492
G1 X92.183 Y114.884 E6.63614
G1 X92.011 Y113.955 E6.66756
G1 X91.913 Y112.776 E6.70691
G1 X91.9 Y112.158 E6.72747
G1 X91.901 Y108.031 E6.86473
G1 X91.911 Y107.348 E6.88745
G1 X91.966 Y106.411 E6.91867
G1 X92.105 Y105.483 E6.94988
G1 X92.325 Y104.571 E6.98108
G1 X92.625 Y103.681 E7.01232
G1 X93.002 Y102.822 E7.04352
G1 X93.453 Y102 E7.07471
G1 X93.976 Y101.22 E7.10594
G1 X94.543 Y100.516 E7.13601
G1 X95.218 Y99.815 E7.16837
M204 S2000
G0 F7500 X95.481 Y100.117
M204 S500
G1 F1500 X96.162 Y99.524 E7.19841
G1 X96.894 Y98.994 E7.22847
G1 X97.669 Y98.531 E7.25849
G1 X98.482 Y98.138 E7.28853
G1 X99.327 Y97.818 E7.31858
G1 X100.196 Y97.575 E7.34859
G1 X101.084 Y97.409 E7.37864
G1 X102.223 Y97.313 E7.41665
G1 X102.83 Y97.3 E7.43685
G1 X106.784 Y97.3 E7.56836
G1 X108.76 Y97.327 E7.63409
G1 X111.382 Y97.327 E7.72129
G1 X112.481 Y97.303 E7.75786
G1 X116.791 Y97.3 E7.90121
G1 X117.637 Y97.311 E7.92935
G1 X118.539 Y97.364 E7.9594
G1 X119.432 Y97.496 E7.98942
G1 X120.31 Y97.707 E8.01946
G1 X121.166 Y97.995 E8.0495
G1 X121.993 Y98.357 E8.07952
G1 X122.785 Y98.792 E8.10958
G1 X123.536 Y99.294 E8.13962
G1 X124.239 Y99.861 E8.16966
G1 X124.889 Y100.488 E8.1997
G1 X125.481 Y101.17 E8.22974
G1 X126.011 Y101.901 E8.25977
G1 X126.473 Y102.677 E8.2898
G1 X126.866 Y103.49 E8.31984
G1 X127.184 Y104.335 E8.34987
G1 X127.427 Y105.205 E8.37991
G1 X127.592 Y106.093 E8.40995
G1 X127.687 Y107.223 E8.44767
G1 X127.7 Y107.83 E8.46786
G1 X127.699 Y111.89 E8.6029
G1 X127.69 Y112.617 E8.62708
G1 X127.639 Y113.519 E8.65713
G1 X127.508 Y114.413 E8.68718
G1 X127.299 Y115.291 E8.7172
G1 X127.013 Y116.148 E8.74725
G1 X126.652 Y116.976 E8.77729
G1 X126.22 Y117.768 E8.8073
G1 X125.719 Y118.52 E8.83735
G1 X125.153 Y119.224 E8.8674
G1 X124.528 Y119.875 E8.89741
G1 X123.847 Y120.469 E8.92747
G1 X123.116 Y121 E8.95752
G1 X122.342 Y121.464 E8.98753
G1 X121.529 Y121.858 E9.01758
G1 X120.685 Y122.178 E9.0476
G1 X119.815 Y122.423 E9.07767
G1 X118.928 Y122.589 E9.10768
G1 X117.777 Y122.687 E9.1461
G1 X117.17 Y122.7 E9.16629
G1 X113.071 Y122.699 E9.30263
G1 X111.24 Y122.673 E9.36353
G1 X108.618 Y122.673 E9.45074
G1 X107.519 Y122.697 E9.4873
G1 X103.209 Y122.7 E9.63065
G1 X102.377 Y122.69 E9.65833
G1 X101.476 Y122.639 E9.68834
G1 X100.582 Y122.507 E9.7184
G1 X99.704 Y122.298 E9.74842
G1 X98.847 Y122.011 E9.77848
G1 X98.02 Y121.65 E9.80849
G1 X97.227 Y121.217 E9.83854
G1 X96.476 Y120.716 E9.86857
G1 X95.772 Y120.15 E9.89861
G1 X95.121 Y119.524 E9.92865
G1 X94.528 Y118.843 E9.95868
G1 X93.998 Y118.112 E9.98872
G1 X93.534 Y117.337 E10.01876
G1 X93.14 Y116.524 E10.04881
G1 X92.82 Y115.68 E10.07883
G1 X92.576 Y114.81 E10.10888
G1 X92.41 Y113.922 E10.13893
G1 X92.313 Y112.767 E10.17748
G1 X92.3 Y112.158 E10.19774
G1 X92.301 Y108.036 E10.33484
G1 X92.31 Y107.371 E10.35696
G1 X92.362 Y106.469 E10.38701
G1 X92.494 Y105.576 E10.41703
G1 X92.704 Y104.698 E10.44706
G1 X92.991 Y103.841 E10.47712
G1 X93.353 Y103.014 E10.50714
G1 X93.786 Y102.222 E10.53717
G1 X94.288 Y101.471 E10.56721
G1 X94.855 Y100.767 E10.59728
G1 X95.481 Y100.117 E10.62729
M204 S2000
G1 F2400 E9.82729
;MESH:3.stl(2)
G0 F7500 X102.914 Y106.835
G0 X106.9 Y111.9
M204 S500
;TYPE:WALL-INNER
G1 F2400 E10.62729
G1 F1500 X106.9 Y108.1 E10.75368
G1 X103.1 Y108.1 E10.88007
G1 X103.1 Y111.9 E11.00646
G1 X106.9 Y111.9 E11.13285
M204 S2000
G0 F7500 X107.3 Y112.3
M204 S500
;TYPE:WALL-OUTER
G1 F1500 X107.3 Y107.7 E11.28584
G1 X102.7 Y107.7 E11.43884
G1 X102.7 Y112.3 E11.59183
G1 X107.3 Y112.3 E11.74483
M204 S2000
G0 F7500 X107.03 Y112.03
G0 X106.8 Y111.54
G0 X106.54 Y111.54
M204 S500
;TYPE:SKIN
G1 F1500 X103.46 Y111.54 E11.84727
G1 X103.46 Y108.46 E11.94971
G1 X106.54 Y108.46 E12.05216
G1 X106.54 Y111.54 E12.1546
M204 S2000
G0 F7500 X106.8 Y111.54
G0 X106.8 Y109.168
G0 X106.34 Y109.168
M204 S500
G1 F1500 X105.83 Y108.658 E12.17859
M204 S2000
G0 F7500 X105.264 Y108.658
M204 S500
G1 F1500 X106.34 Y109.734 E12.2292
M204 S2000
G0 F7500 X106.34 Y110.3
M204 S500
G1 F1500 X104.699 Y108.658 E12.30641
M204 S2000
G0 F7500 X104.133 Y108.658
M204 S500
G1 F1500 X106.34 Y110.865 E12.41022
M204 S2000
G0 F7500 X106.247 Y111.338
M204 S500
G1 F1500 X103.659 Y108.75 E12.53195
M204 S2000
G0 F7500 X103.659 Y109.316
M204 S500
G1 F1500 X105.682 Y111.338 E12.62708
M204 S2000
G0 F7500 X105.116 Y111.338
M204 S500
G1 F1500 X103.659 Y109.882 E12.69559
M204 S2000
G0 F7500 X103.659 Y110.447
M204 S500
G1 F1500 X104.55 Y111.338 E12.7375
M204 S2000
G0 F7500 X103.985 Y111.338
M204 S500
G1 F1500 X103.659 Y111.013 E12.75281
M204 S2000
G1 F2400 E11.95281
;MESH:3.stl(1)
G0 F7500 X103.2 Y111.013
G0 X103.272 Y111.728
G0 X107.08 Y111.9
G0 X108.165 Y111.9
G0 X111.835 Y111.9
G0 X113.1 Y111.9
M204 S500
;TYPE:WALL-INNER
G1 F2400 E12.75281
G1 F1500 X116.9 Y111.9 E12.8792
G1 X116.9 Y108.1 E13.00559
G1 X113.1 Y108.1 E13.13198
G1 X113.1 Y111.9 E13.25837
M204 S2000
G0 F7500 X112.7 Y112.3
M204 S500
;TYPE:WALL-OUTER
G1 F1500 X117.3 Y112.3 E13.41136
G1 X117.3 Y107.7 E13.56436
G1 X112.7 Y107.7 E13.71736
G1 X112.7 Y112.3 E13.87035
M204 S2000
G0 F7500 X112.97 Y112.03
G0 X113.2 Y111.54
G0 X113.46 Y111.54
M204 S500
;TYPE:SKIN
G1 F1500 X113.46 Y108.46 E13.97279
G1 X116.54 Y108.46 E14.07524
G1 X116.54 Y111.54 E14.17768
G1 X113.46 Y111.54 E14.28012
M204 S2000
G0 F7500 X114.168 Y111.34
M204 S500
G1 F1500 X113.658 Y110.83 E14.30411
M204 S2000
G0 F7500 X113.658 Y110.264
M204 S500
G1 F1500 X114.734 Y111.34 E14.35472
M204 S2000
G0 F7500 X115.3 Y111.34
M204 S500
G1 F1500 X113.658 Y109.699 E14.43193
M204 S2000
G0 F7500 X113.658 Y109.133
M204 S500
G1 F1500 X115.865 Y111.34 E14.53574
M204 S2000
G0 F7500 X116.339 Y111.248
M204 S500
G1 F1500 X113.751 Y108.66 E14.65747
M204 S2000
G0 F7500 X114.317 Y108.66
M204 S500
G1 F1500 X116.339 Y110.682 E14.75258
M204 S2000
G0 F7500 X116.339 Y110.117
M204 S500
G1 F1500 X114.882 Y108.66 E14.82111
M204 S2000
G0 F7500 X115.448 Y108.66
M204 S500
G1 F1500 X116.339 Y109.551 E14.86302
M204 S2000
G0 F7500 X116.339 Y108.985
M204 S500
G1 F1500 X116.014 Y108.66 E14.87831
M104 S200
M204 S2000
G1 F2400 E14.07831
;MESH:NONMESH
G0 F300 X116.014 Y108.66 Z0.4
G0 F7500 X116.014 Y108.2
G0 X112.914 Y107.914
G0 X111.835 Y107.914
G0 X95.481 Y100.117
;TIME_ELAPSED:26.327785
;LAYER:1
M106 S85
M204 S500
;TYPE:SKIRT
G1 F2400 E14.87831
G1 F1469 X96.162 Y99.524 E14.90834
G1 X96.894 Y98.994 E14.9384
G1 X97.669 Y98.531 E14.96843
G1 X98.482 Y98.138 E14.99846
G1 X99.327 Y97.818 E15.02851
G1 X100.196 Y97.575 E15.05853
G1 X101.084 Y97.409 E15.08857
G1 X102.223 Y97.313 E15.12659
G1 X102.83 Y97.3 E15.14678
G1 X106.784 Y97.3 E15.27829
G1 X108.76 Y97.327 E15.34402
G1 X111.382 Y97.327 E15.43123
G1 X112.481 Y97.303 E15.46779
G1 X116.791 Y97.3 E15.61114
G1 X117.637 Y97.311 E15.63928
G1 X118.539 Y97.364 E15.66934
G1 X119.432 Y97.496 E15.69936
G1 X120.31 Y97.707 E15.72939
G1 X121.166 Y97.995 E15.75943
G1 X121.993 Y98.357 E15.78946
G1 X122.785 Y98.792 E15.81951
G1 X123.536 Y99.294 E15.84956
G1 X124.239 Y99.861 E15.8796
G1 X124.889 Y100.488 E15.90964
G1 X125.481 Y101.17 E15.93967
G1 X126.011 Y101.901 E15.9697
G1 X126.473 Y102.677 E15.99974
G1 X126.866 Y103.49 E16.02978
G1 X127.184 Y104.335 E16.0598
G1 X127.427 Y105.205 E16.08985
G1 X127.592 Y106.093 E16.11989
G1 X127.687 Y107.223 E16.15761
G1 X127.7 Y107.83 E16.1778
G1 X127.699 Y111.89 E16.31284
G1 X127.69 Y112.617 E16.33702
G1 X127.639 Y113.519 E16.36707
G1 X127.508 Y114.413 E16.39712
G1 X127.299 Y115.291 E16.42714
G1 X127.013 Y116.148 E16.45719
G1 X126.652 Y116.976 E16.48723
G1 X126.22 Y117.768 E16.51723
G1 X125.719 Y118.52 E16.54729
G1 X125.153 Y119.224 E16.57733
G1 X124.528 Y119.875 E16.60735
G1 X123.847 Y120.469 E16.6374
G1 X123.116 Y121 E16.66745
G1 X122.342 Y121.464 E16.69747
G1 X121.529 Y121.858 E16.72752
G1 X120.685 Y122.178 E16.75754
G1 X119.815 Y122.423 E16.7876
G1 X118.928 Y122.589 E16.81762
G1 X117.777 Y122.687 E16.85604
G1 X117.17 Y122.7 E16.87623
G1 X113.071 Y122.699 E17.01256
G1 X111.24 Y122.673 E17.07347
G1 X108.618 Y122.673 E17.16068
G1 X107.519 Y122.697 E17.19724
G1 X103.209 Y122.7 E17.34059
G1 X102.377 Y122.69 E17.36826
G1 X101.476 Y122.639 E17.39828
G1 X100.582 Y122.507 E17.42834
G1 X99.704 Y122.298 E17.45835
G1 X98.847 Y122.011 E17.48841
G1 X98.02 Y121.65 E17.51843
G1 X97.227 Y121.217 E17.54848
G1 X96.476 Y120.716 E17.5785
G1 X95.772 Y120.15 E17.60855
G1 X95.121 Y119.524 E17.63859
G1 X94.528 Y118.843 E17.66862
G1 X93.998 Y118.112 E17.69865
G1 X93.534 Y117.337 E17.7287
G1 X93.14 Y116.524 E17.75874
G1 X92.82 Y115.68 E17.78877
G1 X92.576 Y114.81 E17.81882
G1 X92.41 Y113.922 E17.84887
G1 X92.313 Y112.767 E17.88742
G1 X92.3 Y112.158 E17.90768
G1 X92.301 Y108.036 E18.04477
G1 X92.31 Y107.371 E18.06689
G1 X92.362 Y106.469 E18.09695
G1 X92.494 Y105.576 E18.12697
G1 X92.704 Y104.698 E18.157
G1 X92.991 Y103.841 E18.18705
G1 X93.353 Y103.014 E18.21708
G1 X93.786 Y102.222 E18.2471
G1 X94.288 Y101.471 E18.27715
G1 X94.855 Y100.767 E18.30721
G1 X95.481 Y100.117 E18.33723
M204 S2000
G1 F2400 E17.53723
;MESH:3.stl(2)
G0 F8250 X102.914 Y106.835
G0 X106.9 Y111.9
M204 S500
;TYPE:WALL-INNER
G1 F2400 E18.33723
G1 F1469 X106.9 Y108.1 E18.46362
G1 X103.1 Y108.1 E18.59
G1 X103.1 Y111.9 E18.71639
G1 X106.9 Y111.9 E18.84278
M204 S2000
G0 F8250 X107.3 Y112.3
M204 S500
;TYPE:WALL-OUTER
G1 F1469 X107.3 Y107.7 E18.99578
G1 X102.7 Y107.7 E19.14877
G1 X102.7 Y112.3 E19.30177
G1 X107.3 Y112.3 E19.45477
M204 S2000
G0 F8250 X107.03 Y112.03
G0 X106.8 Y111.54
G0 X106.54 Y111.54
M204 S500
;TYPE:SKIN
G1 F1469 X103.46 Y111.54 E19.55721
G1 X103.46 Y108.46 E19.65965
G1 X106.54 Y108.46 E19.76209
G1 X106.54 Y111.54 E19.86453
M204 S2000
G0 F8250 X105.883 Y111.339
M204 S500
G1 F1469 X106.339 Y110.883 E19.88598
M204 S2000
G0 F8250 X106.339 Y110.317
M204 S500
G1 F1469 X105.317 Y111.339 E19.93405
M204 S2000
G0 F8250 X104.752 Y111.339
M204 S500
G1 F1469 X106.339 Y109.752 E20.0087
M204 S2000
G0 F8250 X106.339 Y109.186
M204 S500
G1 F1469 X104.186 Y111.339 E20.10997
M204 S2000
G0 F8250 X103.659 Y111.3
M204 S500
G1 F1469 X106.301 Y108.658 E20.23424
M204 S2000
G0 F8250 X105.735 Y108.658
M204 S500
G1 F1469 X103.659 Y110.735 E20.33192
M204 S2000
G0 F8250 X103.659 Y110.169
M204 S500
G1 F1469 X105.17 Y108.658 E20.40299
M204 S2000
G0 F8250 X104.604 Y108.658
M204 S500
G1 F1469 X103.659 Y109.603 E20.44744
M204 S2000
G0 F8250 X103.659 Y109.037
M204 S500
G1 F1469 X104.038 Y108.658 E20.46527
M204 S2000
G1 F2400 E19.66527
;MESH:3.stl(1)
G0 F8250 X104.038 Y108.2
