;FLAVOR:Marlin
;TIME:6459
;Filament used: 6.40863m
;Layer height: 0.2
;MINX:0
;MINY:0
;MINZ:0.2
;MAXX:220
;MAXY:220
;MAXZ:3
;Generated with Cura_SteamEngine 5.4.0
M82 ;absolute extrusion mode
; Ender 3 S1 Pro Start G-code
; M413 S0 ; Disable power loss recovery
G92 E0 ; Reset Extruder

; Prep surfaces before auto home for better accuracy
M140 S60
M104 S200

G28 O ; Home all untrusted axes
G1 Z10.0 F3000 ; Move Z Axis up little to prevent scratching of Heat Bed
G1 X0 Y0

M190 S60
M109 S200

G1 X0.1 Y20 Z0.3 F5000.0 ; Move to start position
G1 X0.1 Y200.0 Z0.3 F1500.0 E15 ; Draw the first line
G1 X0.4 Y200.0 Z0.3 F5000.0 ; Move to side a little
G1 X0.4 Y20 Z0.3 F1500.0 E30 ; Draw the second line
G92 E0 ; Reset Extruder
G1 Z2.0 F3000 ; Move Z Axis up little to prevent scratching of Heat Bed
G1 X5 Y20 Z0.3 F5000.0 ; Move over to prevent blob squish

G92 E0
G92 E0
G1 F2400 E-0.8
;LAYER_COUNT:15
;LAYER:0
M107
M204 S2000
G0 F7500 X0.00 Y207.718 Z0.2
M204 S500
;TYPE:SKIRT
G1 F2400 E0
G1 F1500 X0.007 Y207.63 E0.00294
G1 X0.18 Y206.619 E0.03705
G1 X0.549 Y205.32 E0.08197
G1 X0.834 Y204.542 E0.10952
G1 X1.434 Y203.051 E0.16298
G1 X16.378 Y168.256 E1.42249
G1 X16.672 Y167.597 E1.44649
G1 X17.077 Y166.789 E1.47655
G1 X17.626 Y165.9 E1.5113
G1 X18.209 Y165.123 E1.54361
G1 X18.769 Y164.494 E1.57162
G1 X19.488 Y163.745 E1.60615
G1 X167.045 Y16.187 E8.5468
G1 X167.554 Y15.693 E8.5704
G1 X168.228 Y15.092 E8.60043
G1 X169.067 Y14.47 E8.63517
G1 X169.913 Y13.955 E8.66811
G1 X171.109 Y13.39 E8.7121
G1 X171.973 Y13.047 E8.74302
G1 X200.024 Y2.423 E9.74068
G1 X203.029 Y1.296 E9.84742
G1 X204.245 Y0.862 E9.89036
G1 X205.346 Y0.503 E9.92888
G1 X206.25 Y0.253 E9.96008
G1 X207.254 Y0.07 E9.99402
G1 X208.121 Y0.00 E10.02295
M204 S2000
G1 F2400 E9.22295
G0 F7500 X174.829 Y23.02
G0 X19.771 Y164.028
M204 S500
G1 F2400 E10.02295
G1 F1500 X167.324 Y16.474 E16.96341
G1 X167.82 Y15.992 E16.98642
G1 X168.494 Y15.391 E17.01645
G1 X169.276 Y14.811 E17.04884
G1 X170.084 Y14.317 E17.08034
G1 X171.28 Y13.752 E17.12433
G1 X172.115 Y13.421 E17.1542
G1 X200.164 Y2.798 E18.15178
G1 X203.164 Y1.673 E18.25835
G1 X204.369 Y1.242 E18.30091
G1 X205.453 Y0.889 E18.33883
G1 X206.357 Y0.639 E18.37003
G1 X207.286 Y0.469 E18.40144
G1 X208.453 Y0.374 E18.44038
G1 X208.785 Y0.366 E18.45143
G1 X209.723 Y0.385 E18.48263
G1 X210.621 Y0.482 E18.51267
G1 X211.576 Y0.672 E18.54506
G1 X212.477 Y0.937 E18.5763
G1 X213.35 Y1.281 E18.6075
G1 X214.189 Y1.7 E18.6387
G1 X214.989 Y2.192 E18.66993
G1 X215.741 Y2.753 E18.70114
G1 X216.442 Y3.378 E18.73238
G1 X217.06 Y4.036 E18.7624
G1 X217.662 Y4.802 E18.7948
G1 X218.173 Y5.588 E18.82598
G1 X218.612 Y6.417 E18.85718
G1 X218.977 Y7.282 E18.88841
G1 X219.264 Y8.176 E18.91964
G1 X219.47 Y9.091 E18.95084
G1 X219.595 Y10.026 E18.98221
G1 X219.634 Y11.202 E19.02135
G1 X219.627 Y11.486 E19.03079
G1 X219.563 Y12.422 E19.062
G1 X219.417 Y13.346 E19.09311
G1 X219.228 Y14.125 E19.11977
G1 X219.032 Y14.783 E19.14261
G1 X218.719 Y15.744 E19.17622
G1 X218.335 Y16.813 E19.214
G1 X215.562 Y24.169 E19.47547
G1 X206.504 Y48.076 E20.32578
G1 X206.249 Y48.719 E20.34879
G1 X205.863 Y49.574 E20.37999
G1 X205.404 Y50.392 E20.41119
G1 X204.869 Y51.173 E20.44267
G1 X204.009 Y52.179 E20.48669
G1 X203.551 Y52.651 E20.50857
G1 X55.796 Y200.407 E27.45853
G1 X55.317 Y200.873 E27.48076
G1 X54.616 Y201.496 E27.51195
G1 X53.862 Y202.055 E27.54317
G1 X53.062 Y202.545 E27.57437
G1 X52.299 Y202.927 E27.60275
G1 X51.209 Y203.418 E27.64252
G1 X18.563 Y217.446 E28.82433
G1 X16.594 Y218.276 E28.8954
G1 X15.345 Y218.779 E28.94018
G1 X14.622 Y219.046 E28.96582
G1 X13.724 Y219.321 E28.99705
G1 X12.806 Y219.515 E29.02826
G1 X11.874 Y219.628 E29.05948
G1 X10.971 Y219.657 E29.08953
G1 X10 Y219.603 E29.12188
G1 X9.07 Y219.467 E29.15314
G1 X8.158 Y219.249 E29.18433
G1 X7.268 Y218.951 E29.21554
G1 X6.408 Y218.576 E29.24675
G1 X5.549 Y218.11 E29.27925
G1 X4.666 Y217.524 E29.3145
G1 X3.933 Y216.936 E29.34576
G1 X3.257 Y216.287 E29.37692
G1 X2.639 Y215.58 E29.40816
G1 X2.087 Y214.821 E29.43937
G1 X1.604 Y214.016 E29.47059
G1 X1.194 Y213.172 E29.5018
G1 X0.86 Y212.295 E29.53302
G1 X0.606 Y211.392 E29.56422
G1 X0.432 Y210.47 E29.59542
G1 X0.34 Y209.535 E29.62667
G1 X0.332 Y208.597 E29.65787
G1 X0.406 Y207.662 E29.68907
G1 X0.565 Y206.728 E29.72058
G1 X0.934 Y205.429 E29.76549
G1 X1.205 Y204.691 E29.79164
G1 X1.802 Y203.209 E29.84478
G1 X16.743 Y168.419 E31.1041
G1 X17.03 Y167.776 E31.12752
G1 X17.435 Y166.968 E31.15758
G1 X17.946 Y166.14 E31.18994
G1 X18.508 Y165.389 E31.22114
G1 X19.058 Y164.771 E31.24865
G1 X19.771 Y164.028 E31.2829
M204 S2000
G0 F7500 X20.054 Y164.311
M204 S500
G1 F1500 X167.603 Y16.761 E38.22318
G1 X168.086 Y16.291 E38.2456
G1 X168.76 Y15.69 E38.27563
G1 X169.485 Y15.152 E38.30566
G1 X170.255 Y14.679 E38.33571
G1 X171.428 Y14.124 E38.37888
G1 X172.257 Y13.795 E38.40854
G1 X200.304 Y3.173 E39.40605
G1 X203.299 Y2.05 E39.51243
G1 X204.493 Y1.622 E39.55462
G1 X205.56 Y1.274 E39.59195
G1 X206.43 Y1.032 E39.62198
G1 X207.319 Y0.868 E39.65205
G1 X208.463 Y0.774 E39.69023
G1 X208.777 Y0.766 E39.70067
G1 X209.68 Y0.783 E39.73071
G1 X210.578 Y0.88 E39.76075
G1 X211.464 Y1.056 E39.7908
G1 X212.331 Y1.309 E39.82084
G1 X213.172 Y1.639 E39.85089
G1 X213.98 Y2.041 E39.8809
G1 X214.75 Y2.513 E39.91094
G1 X215.475 Y3.052 E39.94099
G1 X216.15 Y3.652 E39.97103
G1 X216.768 Y4.31 E40.00105
G1 X217.327 Y5.02 E40.03111
G1 X217.82 Y5.776 E40.06113
G1 X218.244 Y6.573 E40.09115
G1 X218.596 Y7.405 E40.1212
G1 X218.874 Y8.265 E40.15126
G1 X219.074 Y9.145 E40.18128
G1 X219.195 Y10.04 E40.21131
G1 X219.234 Y11.193 E40.24968
G1 X219.228 Y11.459 E40.25853
G1 X219.168 Y12.36 E40.28857
G1 X219.028 Y13.252 E40.3186
G1 X218.839 Y14.031 E40.34526
G1 X218.652 Y14.659 E40.36705
G1 X218.342 Y15.609 E40.40029
G1 X217.961 Y16.672 E40.43785
G1 X215.188 Y24.028 E40.69932
G1 X206.132 Y47.929 E41.54942
G1 X205.884 Y48.555 E41.57181
G1 X205.514 Y49.379 E41.60185
G1 X205.074 Y50.167 E41.63187
G1 X204.565 Y50.913 E41.66191
G1 X203.722 Y51.9 E41.70508
G1 X203.268 Y52.368 E41.72677
G1 X55.517 Y200.12 E48.67655
G1 X55.051 Y200.574 E48.69818
G1 X54.377 Y201.175 E48.72822
G1 X53.652 Y201.714 E48.75827
G1 X52.883 Y202.187 E48.7883
G1 X52.135 Y202.562 E48.81613
G1 X51.051 Y203.05 E48.85566
G1 X18.407 Y217.077 E50.0374
G1 X16.445 Y217.905 E50.10823
G1 X15.206 Y218.404 E50.15266
G1 X14.504 Y218.664 E50.17755
G1 X13.641 Y218.93 E50.20759
G1 X12.757 Y219.118 E50.23765
G1 X11.861 Y219.228 E50.26767
G1 X10.958 Y219.257 E50.29772
G1 X10.057 Y219.207 E50.32774
G1 X9.163 Y219.078 E50.35778
G1 X8.284 Y218.869 E50.38783
G1 X7.427 Y218.584 E50.41787
G1 X6.599 Y218.224 E50.4479
G1 X5.74 Y217.758 E50.4804
G1 X4.916 Y217.211 E50.5133
G1 X4.21 Y216.647 E50.54335
G1 X3.558 Y216.023 E50.57337
G1 X2.962 Y215.344 E50.60342
G1 X2.43 Y214.615 E50.63344
G1 X1.964 Y213.841 E50.66348
G1 X1.568 Y213.029 E50.69353
G1 X1.245 Y212.186 E50.72356
G1 X0.999 Y211.317 E50.7536
G1 X0.83 Y210.43 E50.78363
G1 X0.74 Y209.531 E50.81368
G1 X0.731 Y208.628 E50.84372
G1 X0.801 Y207.728 E50.87374
G1 X0.95 Y206.837 E50.90379
G1 X1.319 Y205.538 E50.9487
G1 X1.576 Y204.841 E50.97341
G1 X2.17 Y203.367 E51.02627
G1 X17.108 Y168.582 E52.28539
G1 X17.388 Y167.955 E52.30823
G1 X17.793 Y167.147 E52.33829
G1 X18.267 Y166.379 E52.36831
G1 X18.807 Y165.655 E52.39835
G1 X19.346 Y165.048 E52.42535
G1 X20.054 Y164.311 E52.45934
M204 S2000
G1 F2400 E51.65934
G0 F7500 X0.00 Y210.158
M204 S500
G1 F2400 E52.45934
G1 F1500 X0.034 Y210.509 E52.47107
G1 X0.213 Y211.466 E52.50345
G1 X0.475 Y212.403 E52.53581
G1 X0.82 Y213.314 E52.56821
G1 X1.244 Y214.191 E52.60061
G1 X1.744 Y215.027 E52.63301
G1 X2.316 Y215.815 E52.66539
G1 X2.98 Y216.576 E52.69898
G1 X3.656 Y217.225 E52.73015
G1 X4.416 Y217.836 E52.76259
G1 X5.358 Y218.462 E52.8002
G1 X6.217 Y218.928 E52.83271
G1 X7.108 Y219.318 E52.86506
G1 X8.031 Y219.628 E52.89744
G1 X8.977 Y219.856 E52.92981
G1 X9.96 Y220 E52.96285
M204 S2000
G1 F2400 E52.16285
G0 F7500 X12.12 Y220
M204 S500
G1 F2400 E52.96285
G1 F1500 X12.854 Y219.912 E52.98744
G1 X13.807 Y219.712 E53.01983
G1 X14.761 Y219.421 E53.053
G1 X15.484 Y219.154 E53.07863
G1 X16.743 Y218.647 E53.12378
G1 X18.718 Y217.815 E53.19506
G1 X51.367 Y203.786 E54.37697
G1 X52.463 Y203.292 E54.41696
G1 X53.241 Y202.903 E54.44589
G1 X54.071 Y202.396 E54.47823
G1 X54.882 Y201.795 E54.51181
G1 X55.583 Y201.172 E54.543
G1 X56.075 Y200.694 E54.56582
G1 X203.834 Y52.934 E61.51597
G1 X204.296 Y52.458 E61.53803
G1 X205.173 Y51.433 E61.5829
G1 X205.734 Y50.618 E61.61581
G1 X206.212 Y49.77 E61.64818
G1 X206.614 Y48.884 E61.68054
G1 X206.876 Y48.223 E61.70419
G1 X215.936 Y24.31 E62.55471
G1 X218.709 Y16.954 E62.81618
G1 X219.095 Y15.879 E62.85417
G1 X219.412 Y14.907 E62.88818
G1 X219.617 Y14.219 E62.91205
G1 X219.806 Y13.44 E62.93872
G1 X219.958 Y12.484 E62.97091
G1 X220 Y11.884 E62.99092
M204 S2000
G1 F2400 E62.19092
G0 F7500 X220 Y10.167
M204 S500
G1 F2400 E62.99092
G1 F1500 X219.995 Y10.013 E62.99604
G1 X219.866 Y9.038 E63.02875
G1 X219.654 Y8.088 E63.06113
G1 X219.346 Y7.126 E63.09472
G1 X218.981 Y6.261 E63.12595
G1 X218.526 Y5.401 E63.15831
G1 X217.997 Y4.584 E63.19068
G1 X217.352 Y3.762 E63.22543
G1 X216.734 Y3.104 E63.25546
G1 X216.007 Y2.454 E63.28789
G1 X215.228 Y1.871 E63.32026
G1 X214.399 Y1.359 E63.35266
G1 X213.529 Y0.923 E63.38503
G1 X212.624 Y0.565 E63.4174
G1 X211.689 Y0.288 E63.44983
G1 X210.664 Y0.084 E63.48459
G1 X209.886 Y0.00 E63.51062
M204 S2000
G1 F2400 E62.71062
;MESH:bond.stl
G0 F7500 X203.504 Y12.157
G0 X47.574 Y192.789
M204 S500
;TYPE:WALL-INNER
G1 F2400 E63.51062
G1 F1500 X195.896 Y44.466 E70.48726
G1 X207.85 Y12.879 E71.61056
G1 X208.258 Y11.741 E71.65077
G1 X207.912 Y11.862 E71.66296
G1 X203.946 Y13.342 E71.80376
G1 X175.534 Y24.105 E72.81428
G1 X27.211 Y172.426 E79.79089
G1 X12.278 Y207.192 E81.04937
G1 X11.896 Y208.102 E81.08219
G1 X14.241 Y207.112 E81.16685
G1 X47.574 Y192.789 E82.37353
M204 S2000
G0 F7500 X47.802 Y193.126
M204 S500
;TYPE:WALL-OUTER
G1 F1500 X196.24 Y44.688 E89.3556
G1 X208.227 Y13.014 E90.482
G1 X208.728 Y11.611 E90.53155
G1 X208.865 Y11.158 E90.54729
G1 X208.756 Y11.161 E90.55091
G1 X208.361 Y11.282 E90.56466
G1 X207.783 Y11.482 E90.585
G1 X203.804 Y12.968 E90.72627
G1 X175.312 Y23.761 E91.73963
G1 X26.874 Y172.198 E98.72167
G1 X11.909 Y207.037 E99.9828
G1 X11.402 Y208.248 E100.02647
G1 X11.184 Y208.815 E100.04667
G1 X11.76 Y208.595 E100.06718
G1 X14.399 Y207.48 E100.16247
G1 X47.802 Y193.126 E101.37169
M204 S2000
G0 F7500 X47.366 Y192.485
M204 S500
;TYPE:SKIN
G1 F1500 X14.099 Y206.78 E102.57598
G1 X12.577 Y207.424 E102.63095
G1 X27.515 Y172.635 E103.89019
G1 X175.738 Y24.414 E110.8621
G1 X207.663 Y12.338 E111.99736
G1 X207.514 Y12.753 E112.01202
G1 X195.589 Y44.262 E113.13256
G1 X47.366 Y192.485 E120.10452
M204 S2000
G1 F2400 E119.30452
G0 F7500 X47.468 Y192.724
G0 X12.243 Y207.755
G0 X12.722 Y206.427
G0 X13.143 Y206.608
M204 S500
G1 F2400 E120.10452
G1 F1500 X13.394 Y206.859 E120.11632
M204 S2000
G0 F7500 X13.792 Y206.691
M204 S500
G1 F1500 X13.314 Y206.212 E120.13883
M204 S2000
G0 F7500 X13.483 Y205.816
M204 S500
G1 F1500 X14.189 Y206.522 E120.17204
M204 S2000
G0 F7500 X14.584 Y206.352
M204 S500
G1 F1500 X13.653 Y205.42 E120.21585
M204 S2000
G0 F7500 X13.823 Y205.025
M204 S500
G1 F1500 X14.98 Y206.182 E120.27027
M204 S2000
G0 F7500 X15.376 Y206.012
M204 S500
G1 F1500 X13.993 Y204.629 E120.33533
M204 S2000
G0 F7500 X14.163 Y204.233
M204 S500
G1 F1500 X15.772 Y205.842 E120.41101
M204 S2000
G0 F7500 X16.167 Y205.671
M204 S500
G1 F1500 X14.333 Y203.838 E120.49725
M204 S2000
G0 F7500 X14.503 Y203.442
M204 S500
G1 F1500 X16.563 Y205.502 E120.59415
M204 S2000
G0 F7500 X16.959 Y205.332
M204 S500
G1 F1500 X14.673 Y203.046 E120.70167
M204 S2000
G0 F7500 X14.843 Y202.651
M204 S500
G1 F1500 X17.354 Y205.162 E120.81978
M204 S2000
G0 F7500 X17.75 Y204.992
M204 S500
G1 F1500 X15.013 Y202.255 E120.94852
M204 S2000
G0 F7500 X15.182 Y201.859
M204 S500
G1 F1500 X18.145 Y204.821 E121.08787
M204 S2000
G0 F7500 X18.541 Y204.652
M204 S500
G1 F1500 X15.353 Y201.463 E121.23785
M204 S2000
G0 F7500 X15.523 Y201.067
M204 S500
G1 F1500 X18.937 Y204.481 E121.39843
M204 S2000
G0 F7500 X19.333 Y204.312
M204 S500
G1 F1500 X15.692 Y200.671 E121.56969
M204 S2000
G0 F7500 X15.863 Y200.276
M204 S500
G1 F1500 X19.728 Y204.141 E121.75149
M204 S2000
G0 F7500 X20.124 Y203.972
M204 S500
G1 F1500 X16.032 Y199.88 E121.94397
M204 S2000
G0 F7500 X16.202 Y199.484
M204 S500
G1 F1500 X20.52 Y203.802 E122.14707
M204 S2000
G0 F7500 X20.915 Y203.631
M204 S500
G1 F1500 X16.373 Y199.089 E122.36071
M204 S2000
G0 F7500 X16.542 Y198.693
M204 S500
G1 F1500 X21.311 Y203.462 E122.58503
M204 S2000
G0 F7500 X21.706 Y203.291
M204 S500
G1 F1500 X16.712 Y198.297 E122.81994
M204 S2000
G0 F7500 X16.882 Y197.902
M204 S500
G1 F1500 X22.102 Y203.122 E123.06547
M204 S2000
G0 F7500 X22.498 Y202.951
M204 S500
G1 F1500 X17.052 Y197.506 E123.32161
M204 S2000
G0 F7500 X17.222 Y197.11
M204 S500
G1 F1500 X22.893 Y202.781 E123.58835
M204 S2000
G0 F7500 X23.289 Y202.611
M204 S500
G1 F1500 X17.392 Y196.714 E123.86573
M204 S2000
G0 F7500 X17.562 Y196.319
M204 S500
G1 F1500 X23.685 Y202.441 E124.15371
M204 S2000
G0 F7500 X24.081 Y202.272
M204 S500
G1 F1500 X17.732 Y195.923 E124.45235
M204 S2000
G0 F7500 X17.902 Y195.527
M204 S500
G1 F1500 X24.476 Y202.101 E124.76157
M204 S2000
G0 F7500 X24.872 Y201.932
M204 S500
G1 F1500 X18.072 Y195.131 E125.08145
M204 S2000
G0 F7500 X18.241 Y194.735
M204 S500
G1 F1500 X25.267 Y201.761 E125.41193
M204 S2000
G0 F7500 X25.663 Y201.591
M204 S500
G1 F1500 X18.411 Y194.339 E125.75304
M204 S2000
G0 F7500 X18.582 Y193.944
M204 S500
G1 F1500 X26.059 Y201.421 E126.10474
M204 S2000
G0 F7500 X26.454 Y201.251
M204 S500
G1 F1500 X18.751 Y193.548 E126.46706
M204 S2000
G0 F7500 X18.921 Y193.152
M204 S500
G1 F1500 X26.85 Y201.081 E126.84002
M204 S2000
G0 F7500 X27.246 Y200.911
M204 S500
G1 F1500 X19.091 Y192.757 E127.22358
M204 S2000
G0 F7500 X19.261 Y192.361
M204 S500
G1 F1500 X27.642 Y200.741 E127.61777
M204 S2000
G0 F7500 X28.037 Y200.571
M204 S500
G1 F1500 X19.431 Y191.965 E128.02257
M204 S2000
G0 F7500 X19.601 Y191.57
M204 S500
G1 F1500 X28.433 Y200.401 E128.43798
M204 S2000
G0 F7500 X28.828 Y200.231
M204 S500
G1 F1500 X19.771 Y191.174 E128.86399
M204 S2000
G0 F7500 X19.941 Y190.778
M204 S500
G1 F1500 X29.224 Y200.061 E129.30064
M204 S2000
G0 F7500 X29.619 Y199.891
M204 S500
G1 F1500 X20.111 Y190.382 E129.74789
M204 S2000
G0 F7500 X20.281 Y189.986
M204 S500
G1 F1500 X30.015 Y199.721 E130.20577
M204 S2000
G0 F7500 X30.411 Y199.551
M204 S500
G1 F1500 X20.45 Y189.59 E130.6743
M204 S2000
G0 F7500 X20.621 Y189.195
M204 S500
G1 F1500 X30.807 Y199.381 E131.15342
M204 S2000
G0 F7500 X31.203 Y199.211
M204 S500
G1 F1500 X20.791 Y188.799 E131.64317
M204 S2000
G0 F7500 X20.96 Y188.403
M204 S500
G1 F1500 X31.598 Y199.041 E132.14355
M204 S2000
G0 F7500 X31.994 Y198.871
M204 S500
G1 F1500 X21.131 Y188.008 E132.65451
M204 S2000
G0 F7500 X21.3 Y187.612
M204 S500
G1 F1500 X32.389 Y198.701 E133.1761
M204 S2000
G0 F7500 X32.785 Y198.531
M204 S500
G1 F1500 X21.47 Y187.216 E133.70833
M204 S2000
G0 F7500 X21.641 Y186.821
M204 S500
G1 F1500 X33.18 Y198.361 E134.25111
M204 S2000
G0 F7500 X33.576 Y198.191
M204 S500
G1 F1500 X21.81 Y186.425 E134.80455
M204 S2000
G0 F7500 X21.98 Y186.029
M204 S500
G1 F1500 X33.972 Y198.021 E135.36861
M204 S2000
G0 F7500 X34.368 Y197.851
M204 S500
G1 F1500 X22.15 Y185.633 E135.94331
M204 S2000
G0 F7500 X22.32 Y185.237
M204 S500
G1 F1500 X34.764 Y197.681 E136.52864
M204 S2000
G0 F7500 X35.159 Y197.511
M204 S500
G1 F1500 X22.49 Y184.841 E137.12457
M204 S2000
G0 F7500 X22.66 Y184.446
M204 S500
G1 F1500 X35.555 Y197.341 E137.73111
M204 S2000
G0 F7500 X35.95 Y197.171
M204 S500
G1 F1500 X22.83 Y184.05 E138.34826
M204 S2000
G0 F7500 X23 Y183.654
M204 S500
G1 F1500 X36.346 Y197.001 E138.97604
M204 S2000
G0 F7500 X36.741 Y196.83
M204 S500
G1 F1500 X23.17 Y183.259 E139.61438
M204 S2000
G0 F7500 X23.34 Y182.863
M204 S500
G1 F1500 X37.137 Y196.661 E140.26337
M204 S2000
G0 F7500 X37.533 Y196.49
M204 S500
G1 F1500 X23.509 Y182.467 E140.92299
M204 S2000
G0 F7500 X23.679 Y182.071
M204 S500
