;FLAVOR:Marlin
;TIME:1016
;Filament used: 0.291236m
;Layer height: 0.2
;MINX:91.5
;MINY:96.463
;MINZ:0.2
;MAXX:128.5
;MAXY:123.538
;MAXZ:46.4
;Generated with Cura_SteamEngine 5.4.0
M82 ;absolute extrusion mode
; Ender 3 S1 Pro Start G-code
; M413 S0 ; Disable power loss recovery
G92 E0 ; Reset Extruder

; Prep surfaces before auto home for better accuracy
M140 S60
M104 S200

G28 O ; Home all untrusted axes
G1 Z10.0 F3000 ; Move Z Axis up little to prevent scratching of Heat Bed
G1 X0 Y0

M190 S60
M109 S200

G1 X0.1 Y20 Z0.3 F5000.0 ; Move to start position
G1 X0.1 Y200.0 Z0.3 F1500.0 E15 ; Draw the first line
G1 X0.4 Y200.0 Z0.3 F5000.0 ; Move to side a little
G1 X0.4 Y20 Z0.3 F1500.0 E30 ; Draw the second line
G92 E0 ; Reset Extruder
G1 Z2.0 F3000 ; Move Z Axis up little to prevent scratching of Heat Bed
G1 X5 Y20 Z0.3 F5000.0 ; Move over to prevent blob squish

G92 E0
G92 E0
G1 F2400 E-0.8
;LAYER_COUNT:232
;LAYER:0
M107
M204 S2000
G0 F7500 X94.969 Y99.501 Z0.2
M204 S500
;TYPE:SKIRT
G1 F2400 E0
G1 F1500 X95.679 Y98.887 E0.03122
G1 X96.498 Y98.297 E0.06479
G1 X97.337 Y97.801 E0.09721
G1 X98.151 Y97.41 E0.12724
G1 X99.128 Y97.042 E0.16197
G1 X100.032 Y96.792 E0.19316
G1 X101.022 Y96.611 E0.22664
G1 X101.879 Y96.528 E0.25527
G1 X102.5 Y96.495 E0.27596
G1 X103.515 Y96.466 E0.30973
G1 X103.964 Y96.463 E0.32467
G1 X108.756 Y96.527 E0.48406
G1 X111.364 Y96.527 E0.5708
G1 X112.481 Y96.503 E0.60796
G1 X116.802 Y96.5 E0.75168
G1 X117.684 Y96.513 E0.78102
G1 X118.656 Y96.572 E0.81341
G1 X119.619 Y96.718 E0.8458
G1 X120.566 Y96.949 E0.87823
G1 X121.454 Y97.249 E0.9094
G1 X122.346 Y97.639 E0.94178
G1 X123.229 Y98.126 E0.97532
G1 X123.98 Y98.628 E1.00536
G1 X124.795 Y99.286 E1.0402
G1 X125.493 Y99.964 E1.07257
G1 X126.129 Y100.701 E1.10495
G1 X126.699 Y101.491 E1.13735
G1 X127.161 Y102.267 E1.16738
G1 X127.615 Y103.209 E1.20216
G1 X127.944 Y104.087 E1.23335
G1 X128.213 Y105.059 E1.26689
G1 X128.39 Y106.025 E1.29956
G1 X128.485 Y107.155 E1.33727
G1 X128.5 Y107.83 E1.35973
G1 X128.499 Y111.9 E1.4951
G1 X128.488 Y112.663 E1.52048
G1 X128.431 Y113.636 E1.5529
G1 X128.286 Y114.599 E1.58529
G1 X128.057 Y115.545 E1.61766
G1 X127.746 Y116.469 E1.65009
G1 X127.354 Y117.36 E1.68246
G1 X126.886 Y118.212 E1.71479
G1 X126.364 Y118.993 E1.74604
G1 X125.731 Y119.778 E1.77958
G1 X125.106 Y120.429 E1.80959
G1 X124.317 Y121.117 E1.84441
G1 X123.557 Y121.667 E1.87562
G1 X122.69 Y122.184 E1.90919
G1 X121.812 Y122.606 E1.94159
G1 X120.901 Y122.948 E1.97395
G1 X119.962 Y123.209 E2.00637
G1 X118.996 Y123.387 E2.03904
G1 X117.845 Y123.485 E2.07746
G1 X117.17 Y123.5 E2.09992
G1 X113.059 Y123.499 E2.23665
G1 X111.228 Y123.473 E2.29755
G1 X108.634 Y123.473 E2.38383
G1 X107.438 Y123.498 E2.42362
G1 X104.042 Y123.538 E2.53658
G1 X102.919 Y123.518 E2.57394
G1 X102.026 Y123.48 E2.60366
G1 X101.037 Y123.391 E2.63669
G1 X100.08 Y123.217 E2.66904
G1 X99.141 Y122.96 E2.70142
G1 X98.228 Y122.623 E2.73379
G1 X97.411 Y122.237 E2.76385
G1 X96.509 Y121.709 E2.79861
G1 X95.717 Y121.142 E2.831
G1 X95.004 Y120.532 E2.86221
G1 X94.3 Y119.811 E2.89573
G1 X93.727 Y119.113 E2.92577
G1 X93.137 Y118.249 E2.96056
G1 X92.68 Y117.428 E2.99182
G1 X92.27 Y116.507 E3.02535
G1 X91.955 Y115.586 E3.05772
G1 X91.722 Y114.639 E3.09016
G1 X91.574 Y113.678 E3.1225
G1 X91.513 Y112.783 E3.15234
G1 X91.5 Y112.158 E3.17313
G1 X91.501 Y108.009 E3.31112
G1 X91.513 Y107.308 E3.33444
G1 X91.573 Y106.335 E3.36687
G1 X91.72 Y105.374 E3.3992
G1 X91.951 Y104.426 E3.43165
G1 X92.253 Y103.537 E3.46288
G1 X92.66 Y102.615 E3.4964
G1 X93.131 Y101.763 E3.52878
G1 X93.676 Y100.954 E3.56123
G1 X94.267 Y100.226 E3.59241
G1 X94.969 Y99.501 E3.62598
M204 S2000
G0 F7500 X95.231 Y99.804
M204 S500
G1 F1500 X95.941 Y99.19 E3.6572
G1 X96.702 Y98.641 E3.68841
G1 X97.51 Y98.162 E3.71965
G1 X98.324 Y97.771 E3.74969
G1 X99.235 Y97.428 E3.78206
G1 X100.139 Y97.178 E3.81326
G1 X101.061 Y97.009 E3.84443
G1 X101.9 Y96.927 E3.87247
G1 X102.512 Y96.895 E3.89286
G1 X103.518 Y96.866 E3.92633
G1 X103.959 Y96.863 E3.941
G1 X108.751 Y96.927 E4.10039
G1 X111.373 Y96.927 E4.1876
G1 X112.481 Y96.903 E4.22446
G1 X116.796 Y96.9 E4.36798
G1 X117.66 Y96.912 E4.39672
G1 X118.597 Y96.968 E4.42794
G1 X119.525 Y97.107 E4.45915
G1 X120.438 Y97.328 E4.49039
G1 X121.294 Y97.616 E4.52043
G1 X122.186 Y98.006 E4.55281
G1 X123.007 Y98.459 E4.584
G1 X123.758 Y98.961 E4.61404
G1 X124.517 Y99.573 E4.64647
G1 X125.191 Y100.226 E4.67769
G1 X125.805 Y100.935 E4.70888
G1 X126.355 Y101.696 E4.74011
G1 X126.817 Y102.472 E4.77015
G1 X127.24 Y103.349 E4.80253
G1 X127.569 Y104.227 E4.83372
G1 X127.82 Y105.132 E4.86496
G1 X127.991 Y106.059 E4.89631
G1 X128.086 Y107.189 E4.93402
G1 X128.1 Y107.83 E4.95535
G1 X128.099 Y111.895 E5.09055
G1 X128.089 Y112.64 E5.11533
G1 X128.035 Y113.577 E5.14655
G1 X127.897 Y114.506 E5.17779
G1 X127.678 Y115.418 E5.20898
G1 X127.38 Y116.308 E5.2402
G1 X127.003 Y117.168 E5.27143
G1 X126.553 Y117.99 E5.3026
G1 X126.031 Y118.771 E5.33384
G1 X125.442 Y119.501 E5.36504
G1 X124.817 Y120.152 E5.39506
G1 X124.082 Y120.793 E5.42749
G1 X123.322 Y121.343 E5.4587
G1 X122.516 Y121.824 E5.48991
G1 X121.671 Y122.232 E5.52112
G1 X120.793 Y122.563 E5.55233
G1 X119.889 Y122.816 E5.58355
G1 X118.962 Y122.988 E5.61491
G1 X117.811 Y123.086 E5.65333
G1 X117.17 Y123.1 E5.67466
G1 X113.065 Y123.099 E5.81119
G1 X111.234 Y123.073 E5.8721
G1 X108.626 Y123.073 E5.95884
G1 X107.433 Y123.098 E5.99853
G1 X104.049 Y123.138 E6.11109
G1 X102.936 Y123.118 E6.14811
G1 X102.043 Y123.08 E6.17784
G1 X101.108 Y122.997 E6.20906
G1 X100.185 Y122.831 E6.24025
G1 X99.279 Y122.585 E6.27148
G1 X98.399 Y122.261 E6.30267
G1 X97.582 Y121.875 E6.33272
G1 X96.741 Y121.383 E6.36513
G1 X95.977 Y120.838 E6.39634
G1 X95.264 Y120.228 E6.42755
G1 X94.609 Y119.557 E6.45874
G1 X94.036 Y118.859 E6.48877
G1 X93.487 Y118.054 E6.52118
G1 X93.03 Y117.233 E6.55243
G1 X92.648 Y116.377 E6.58361
G1 X92.343 Y115.49 E6.61481
G1 X92.117 Y114.578 E6.64606
G1 X91.973 Y113.651 E6.67726
G1 X91.913 Y112.775 E6.70647
G1 X91.9 Y112.158 E6.72699
G1 X91.901 Y108.015 E6.86479
G1 X91.912 Y107.332 E6.88751
G1 X91.969 Y106.395 E6.91873
G1 X92.109 Y105.468 E6.94991
G1 X92.33 Y104.555 E6.98116
G1 X92.632 Y103.666 E7.01238
G1 X93.01 Y102.808 E7.04357
G1 X93.463 Y101.986 E7.07478
G1 X93.987 Y101.206 E7.10604
G1 X94.578 Y100.478 E7.13722
G1 X95.231 Y99.804 E7.16844
M204 S2000
G0 F7500 X95.493 Y100.106
M204 S500
G1 F1500 X96.175 Y99.514 E7.19847
G1 X96.907 Y98.985 E7.22851
G1 X97.683 Y98.523 E7.25855
G1 X98.497 Y98.132 E7.28859
G1 X99.342 Y97.813 E7.31863
G1 X100.212 Y97.571 E7.34866
G1 X101.1 Y97.407 E7.3787
G1 X101.921 Y97.326 E7.40614
G1 X102.524 Y97.295 E7.42622
G1 X103.521 Y97.266 E7.45939
G1 X103.954 Y97.263 E7.47379
G1 X108.746 Y97.327 E7.63319
G1 X111.382 Y97.327 E7.72087
G1 X112.481 Y97.303 E7.75743
G1 X116.791 Y97.3 E7.90078
G1 X117.637 Y97.311 E7.92892
G1 X118.539 Y97.364 E7.95897
G1 X119.432 Y97.496 E7.98899
G1 X120.31 Y97.707 E8.01903
G1 X121.166 Y97.995 E8.04907
G1 X121.993 Y98.357 E8.07909
G1 X122.785 Y98.792 E8.10915
G1 X123.536 Y99.294 E8.13919
G1 X124.239 Y99.861 E8.16923
G1 X124.889 Y100.488 E8.19927
G1 X125.481 Y101.17 E8.22931
G1 X126.011 Y101.901 E8.25934
G1 X126.473 Y102.677 E8.28938
G1 X126.866 Y103.49 E8.31941
G1 X127.184 Y104.335 E8.34944
G1 X127.427 Y105.205 E8.37948
G1 X127.592 Y106.093 E8.40952
G1 X127.687 Y107.223 E8.44724
G1 X127.7 Y107.83 E8.46743
G1 X127.699 Y111.89 E8.60247
G1 X127.69 Y112.617 E8.62665
G1 X127.639 Y113.519 E8.6567
G1 X127.508 Y114.413 E8.68675
G1 X127.299 Y115.291 E8.71677
G1 X127.013 Y116.148 E8.74682
G1 X126.652 Y116.976 E8.77686
G1 X126.22 Y117.768 E8.80687
G1 X125.719 Y118.52 E8.83692
G1 X125.153 Y119.224 E8.86697
G1 X124.528 Y119.875 E8.89698
G1 X123.847 Y120.469 E8.92704
G1 X123.116 Y121 E8.95709
G1 X122.342 Y121.464 E8.9871
G1 X121.529 Y121.858 E9.01715
G1 X120.685 Y122.178 E9.04717
G1 X119.815 Y122.423 E9.07724
G1 X118.928 Y122.589 E9.10725
G1 X117.777 Y122.687 E9.14567
G1 X117.17 Y122.7 E9.16586
G1 X113.071 Y122.699 E9.3022
G1 X111.24 Y122.673 E9.3631
G1 X108.618 Y122.673 E9.45031
G1 X107.428 Y122.698 E9.4899
G1 X104.056 Y122.738 E9.60206
G1 X102.953 Y122.718 E9.63875
G1 X102.078 Y122.681 E9.66788
G1 X101.178 Y122.603 E9.69793
G1 X100.289 Y122.445 E9.72796
G1 X99.417 Y122.21 E9.758
G1 X98.57 Y121.899 E9.78801
G1 X97.753 Y121.513 E9.81806
G1 X96.973 Y121.057 E9.84811
G1 X96.237 Y120.534 E9.87814
G1 X95.55 Y119.948 E9.90817
G1 X94.918 Y119.303 E9.93821
G1 X94.345 Y118.605 E9.96825
G1 X93.836 Y117.859 E9.99828
G1 X93.395 Y117.07 E10.02835
G1 X93.026 Y116.246 E10.05838
G1 X92.731 Y115.393 E10.08839
G1 X92.512 Y114.516 E10.11846
G1 X92.372 Y113.624 E10.14849
G1 X92.313 Y112.766 E10.1771
G1 X92.3 Y112.158 E10.19732
G1 X92.301 Y108.021 E10.33492
G1 X92.311 Y107.356 E10.35704
G1 X92.365 Y106.454 E10.38709
G1 X92.498 Y105.561 E10.41712
G1 X92.709 Y104.683 E10.44716
G1 X92.998 Y103.827 E10.47721
G1 X93.361 Y103 E10.50725
G1 X93.795 Y102.209 E10.53725
G1 X94.298 Y101.458 E10.56732
G1 X94.866 Y100.756 E10.59735
G1 X95.493 Y100.106 E10.62739
M204 S2000
G1 F2400 E9.82739
;MESH:1.stl
G0 F7500 X102.914 Y106.835
G0 X104.211 Y111.94
M204 S500
;TYPE:WALL-INNER
G1 F2400 E10.62739
G1 F1500 X104.243 Y111.9 E10.62909
G1 X106.9 Y111.9 E10.71747
G1 X106.9 Y108.1 E10.84385
G1 X104.242 Y108.1 E10.93226
G1 X104.211 Y108.061 E10.93392
G1 X103.723 Y108.06 E10.95015
G1 X103.692 Y108.1 E10.95183
G1 X103.1 Y108.1 E10.97152
G1 X103.1 Y111.9 E11.09791
G1 X103.693 Y111.9 E11.11763
G1 X103.724 Y111.94 E11.11932
G1 X104.211 Y111.94 E11.13551
M204 S2000
G0 F7500 X104.294 Y112.34
M204 S500
;TYPE:WALL-OUTER
G1 F1500 X104.322 Y112.305 E11.137
G1 X107.3 Y112.3 E11.23605
G1 X107.3 Y107.7 E11.38905
G1 X104.321 Y107.695 E11.48813
G1 X104.293 Y107.661 E11.4896
G1 X103.637 Y107.66 E11.51142
G1 X103.61 Y107.695 E11.51289
G1 X102.7 Y107.7 E11.54315
G1 X102.7 Y112.3 E11.69615
G1 X103.611 Y112.305 E11.72645
G1 X103.638 Y112.34 E11.72792
G1 X104.294 Y112.34 E11.74974
M204 S2000
G0 F7500 X103.823 Y111.58
M204 S500
;TYPE:SKIN
G1 F1500 X103.772 Y111.54 E11.75189
G1 X103.46 Y111.54 E11.76227
G1 X103.46 Y108.46 E11.86471
G1 X103.77 Y108.46 E11.87502
G1 X103.822 Y108.42 E11.87721
G1 X104.152 Y108.422 E11.88818
G1 X104.332 Y108.457 E11.89428
G1 X106.54 Y108.46 E11.96772
G1 X106.54 Y111.54 E12.07016
G1 X104.328 Y111.543 E12.14373
G1 X104.15 Y111.58 E12.14978
G1 X103.823 Y111.58 E12.16065
M204 S2000
G0 F7500 X103.659 Y111.013
M204 S500
G1 F1500 X104.025 Y111.379 E12.17787
M204 S2000
G0 F7500 X104.55 Y111.338
M204 S500
G1 F1500 X103.659 Y110.447 E12.21978
M204 S2000
G0 F7500 X103.659 Y109.882
M204 S500
G1 F1500 X105.116 Y111.338 E12.28829
M204 S2000
G0 F7500 X105.682 Y111.338
M204 S500
G1 F1500 X103.659 Y109.316 E12.38342
M204 S2000
G0 F7500 X103.659 Y108.75
M204 S500
G1 F1500 X106.247 Y111.338 E12.50515
M204 S2000
G0 F7500 X106.34 Y110.865
M204 S500
G1 F1500 X104.095 Y108.62 E12.61075
M204 S2000
G0 F7500 X104.699 Y108.658
M204 S500
G1 F1500 X106.34 Y110.3 E12.68796
M204 S2000
G0 F7500 X106.34 Y109.734
M204 S500
G1 F1500 X105.264 Y108.658 E12.73857
M204 S2000
G0 F7500 X105.83 Y108.658
M204 S500
G1 F1500 X106.34 Y109.168 E12.76256
M204 S2000
G1 F2400 E11.96256
;MESH:si.stl
G0 F7500 X106.8 Y109.168
G0 X106.728 Y111.728
G0 X104.157 Y112
G0 X104.157 Y112.329
M204 S500
;TYPE:WALL-OUTER
G1 F2400 E12.76256
G1 F1566.6 X103.774 Y112.329 E12.77476
G1 X103.773 Y107.671 E12.9231
G1 X104.156 Y107.671 E12.9353
G1 X104.157 Y112.329 E13.08364
M204 S2000
G1 F2400 E12.28364
;MESH:3.stl
G0 F7500 X104.157 Y112
G0 X107.08 Y111.9
G0 X108.165 Y111.9
G0 X111.835 Y111.9
G0 X113.1 Y111.9
M204 S500
;TYPE:WALL-INNER
G1 F2400 E13.08364
G1 F1500 X116.9 Y111.9 E13.21003
G1 X116.9 Y108.1 E13.33642
G1 X113.1 Y108.1 E13.46281
G1 X113.1 Y111.9 E13.58919
M204 S2000
G0 F7500 X112.7 Y112.3
M204 S500
;TYPE:WALL-OUTER
G1 F1500 X117.3 Y112.3 E13.74219
G1 X117.3 Y107.7 E13.89519
G1 X112.7 Y107.7 E14.04818
G1 X112.7 Y112.3 E14.20118
M204 S2000
G0 F7500 X112.97 Y112.03
G0 X113.2 Y111.54
G0 X113.46 Y111.54
M204 S500
;TYPE:SKIN
G1 F1500 X113.46 Y108.46 E14.30362
G1 X116.54 Y108.46 E14.40606
G1 X116.54 Y111.54 E14.5085
G1 X113.46 Y111.54 E14.61095
M204 S2000
G0 F7500 X114.168 Y111.34
M204 S500
G1 F1500 X113.658 Y110.83 E14.63493
M204 S2000
G0 F7500 X113.658 Y110.264
M204 S500
G1 F1500 X114.734 Y111.34 E14.68555
M204 S2000
G0 F7500 X115.3 Y111.34
M204 S500
G1 F1500 X113.658 Y109.699 E14.76276
M204 S2000
G0 F7500 X113.658 Y109.133
M204 S500
G1 F1500 X115.865 Y111.34 E14.86657
M204 S2000
G0 F7500 X116.339 Y111.248
M204 S500
G1 F1500 X113.751 Y108.66 E14.9883
M204 S2000
G0 F7500 X114.317 Y108.66
M204 S500
G1 F1500 X116.339 Y110.682 E15.08341
M204 S2000
G0 F7500 X116.339 Y110.117
M204 S500
G1 F1500 X114.882 Y108.66 E15.15194
M204 S2000
G0 F7500 X115.448 Y108.66
M204 S500
G1 F1500 X116.339 Y109.551 E15.19385
M204 S2000
G0 F7500 X116.339 Y108.985
M204 S500
G1 F1500 X116.014 Y108.66 E15.20914
M104 S200
M204 S2000
G1 F2400 E14.40914
;MESH:NONMESH
G0 F300 X116.014 Y108.66 Z0.4
G0 F7500 X116.014 Y108.2
G0 X112.914 Y107.914
G0 X111.835 Y107.914
G0 X95.493 Y100.106
;TIME_ELAPSED:27.219725
;LAYER:1
M106 S85
M204 S500
;TYPE:SKIRT
G1 F2400 E15.20914
G1 F1500 X96.175 Y99.514 E15.23917
G1 X96.907 Y98.985 E15.26921
G1 X97.683 Y98.523 E15.29925
G1 X98.497 Y98.132 E15.32929
G1 X99.342 Y97.813 E15.35933
G1 X100.212 Y97.571 E15.38936
G1 X101.1 Y97.407 E15.4194
G1 X101.921 Y97.326 E15.44684
G1 X102.524 Y97.295 E15.46692
G1 X103.521 Y97.266 E15.50009
G1 X103.954 Y97.263 E15.51449
G1 X108.746 Y97.327 E15.67389
G1 X111.382 Y97.327 E15.76157
G1 X112.481 Y97.303 E15.79813
G1 X116.791 Y97.3 E15.94148
G1 X117.637 Y97.311 E15.96962
G1 X118.539 Y97.364 E15.99967
G1 X119.432 Y97.496 E16.02969
G1 X120.31 Y97.707 E16.05973
G1 X121.166 Y97.995 E16.08977
G1 X121.993 Y98.357 E16.11979
G1 X122.785 Y98.792 E16.14985
G1 X123.536 Y99.294 E16.17989
G1 X124.239 Y99.861 E16.20993
G1 X124.889 Y100.488 E16.23997
G1 X125.481 Y101.17 E16.27001
G1 X126.011 Y101.901 E16.30004
G1 X126.473 Y102.677 E16.33008
G1 X126.866 Y103.49 E16.36011
G1 X127.184 Y104.335 E16.39014
G1 X127.427 Y105.205 E16.42018
G1 X127.592 Y106.093 E16.45022
G1 X127.687 Y107.223 E16.48794
G1 X127.7 Y107.83 E16.50813
G1 X127.699 Y111.89 E16.64317
G1 X127.69 Y112.617 E16.66735
G1 X127.639 Y113.519 E16.6974
G1 X127.508 Y114.413 E16.72745
G1 X127.299 Y115.291 E16.75747
G1 X127.013 Y116.148 E16.78752
G1 X126.652 Y116.976 E16.81756
G1 X126.22 Y117.768 E16.84757
G1 X125.719 Y118.52 E16.87762
G1 X125.153 Y119.224 E16.90767
G1 X124.528 Y119.875 E16.93768
G1 X123.847 Y120.469 E16.96774
G1 X123.116 Y121 E16.99779
G1 X122.342 Y121.464 E17.0278
G1 X121.529 Y121.858 E17.05785
G1 X120.685 Y122.178 E17.08787
G1 X119.815 Y122.423 E17.11794
G1 X118.928 Y122.589 E17.14795
G1 X117.777 Y122.687 E17.18637
G1 X117.17 Y122.7 E17.20656
G1 X113.071 Y122.699 E17.3429
G1 X111.24 Y122.673 E17.4038
G1 X108.618 Y122.673 E17.49101
G1 X107.428 Y122.698 E17.5306
G1 X104.056 Y122.738 E17.64276
G1 X102.953 Y122.718 E17.67945
G1 X102.078 Y122.681 E17.70858
G1 X101.178 Y122.603 E17.73863
G1 X100.289 Y122.445 E17.76866
G1 X99.417 Y122.21 E17.7987
G1 X98.57 Y121.899 E17.82871
G1 X97.753 Y121.513 E17.85876
G1 X96.973 Y121.057 E17.88881
G1 X96.237 Y120.534 E17.91884
G1 X95.55 Y119.948 E17.94887
G1 X94.918 Y119.303 E17.97891
G1 X94.345 Y118.605 E18.00895
G1 X93.836 Y117.859 E18.03898
G1 X93.395 Y117.07 E18.06905
G1 X93.026 Y116.246 E18.09908
G1 X92.731 Y115.393 E18.12909
G1 X92.512 Y114.516 E18.15916
G1 X92.372 Y113.624 E18.18919
G1 X92.313 Y112.766 E18.2178
G1 X92.3 Y112.158 E18.23802
G1 X92.301 Y108.021 E18.37562
G1 X92.311 Y107.356 E18.39774
G1 X92.365 Y106.454 E18.42779
G1 X92.498 Y105.561 E18.45782
G1 X92.709 Y104.683 E18.48786
G1 X92.998 Y103.827 E18.51791
G1 X93.361 Y103 E18.54795
G1 X93.795 Y102.209 E18.57795
G1 X94.298 Y101.458 E18.60802
G1 X94.866 Y100.756 E18.63805
G1 X95.493 Y100.106 E18.66809
M204 S2000
G1 F2400 E17.86809
;MESH:1.stl
G0 F8250 X102.544 Y106.847
G0 X104.245 Y111.94
M204 S500
;TYPE:WALL-INNER
G1 F2400 E18.66809
G1 F1650 X104.275 Y111.9 E18.66975
G1 X106.9 Y111.9 E18.75706
G1 X106.9 Y108.1 E18.88345
G1 X104.275 Y108.1 E18.97076
