;FLAVOR:Marlin
;TIME:8877
;Filament used: 6.24694m
;Layer height: 0.2
;MINX:49.397
;MINY:59.022
;MINZ:0.2
;MAXX:170.603
;MAXY:160.978
;MAXZ:9.4
;Generated with Cura_SteamEngine 5.4.0
M82 ;absolute extrusion mode
; Ender 3 S1 Pro Start G-code
; M413 S0 ; Disable power loss recovery
G92 E0 ; Reset Extruder

; Prep surfaces before auto home for better accuracy
M140 S60
M104 S200

G28 O ; Home all untrusted axes
G1 Z10.0 F3000 ; Move Z Axis up little to prevent scratching of Heat Bed
G1 X0 Y0

M190 S60
M109 S200

G1 X0.1 Y20 Z0.3 F5000.0 ; Move to start position
G1 X0.1 Y200.0 Z0.3 F1500.0 E15 ; Draw the first line
G1 X0.4 Y200.0 Z0.3 F5000.0 ; Move to side a little
G1 X0.4 Y20 Z0.3 F1500.0 E30 ; Draw the second line
G92 E0 ; Reset Extruder
G1 Z2.0 F3000 ; Move Z Axis up little to prevent scratching of Heat Bed
G1 X5 Y20 Z0.3 F5000.0 ; Move over to prevent blob squish

G92 E0
G92 E0
G1 F2400 E-0.8
;LAYER_COUNT:47
;LAYER:0
M107
M204 S2000
G0 F7500 X53.599 Y61.395 Z0.2
M204 S500
;TYPE:SKIRT
G1 F2400 E0
G1 F1500 X54.39 Y60.825 E0.03243
G1 X55.166 Y60.363 E0.06247
G1 X56.107 Y59.911 E0.09719
G1 X57.019 Y59.57 E0.12957
G1 X57.959 Y59.311 E0.162
G1 X58.918 Y59.137 E0.19442
G1 X59.885 Y59.046 E0.22672
G1 X60.403 Y59.023 E0.24397
G1 X61.376 Y59.022 E0.27633
G1 X62.348 Y59.108 E0.30879
G1 X63.305 Y59.281 E0.34113
G1 X64.243 Y59.535 E0.37345
G1 X65.127 Y59.86 E0.40478
G1 X66.169 Y60.361 E0.44323
G1 X67.155 Y60.9 E0.48061
G1 X69.478 Y62.129 E0.56802
G1 X71.718 Y63.237 E0.65114
G1 X74.016 Y64.291 E0.73523
G1 X76.329 Y65.275 E0.81883
G1 X78.679 Y66.198 E0.9028
G1 X81.045 Y67.05 E0.98644
G1 X83.439 Y67.836 E1.07025
G1 X85.86 Y68.556 E1.15426
G1 X88.253 Y69.195 E1.23664
G1 X90.75 Y69.784 E1.32197
G1 X93.23 Y70.298 E1.40621
G1 X95.653 Y70.729 E1.48806
G1 X98.167 Y71.102 E1.57259
G1 X100.697 Y71.406 E1.65734
G1 X103.147 Y71.63 E1.73917
G1 X105.671 Y71.788 E1.82328
G1 X108.203 Y71.875 E1.90755
G1 X110.734 Y71.891 E1.99173
G1 X113.22 Y71.835 E2.07444
G1 X115.728 Y71.71 E2.15796
G1 X118.252 Y71.511 E2.24217
G1 X120.768 Y71.24 E2.32633
G1 X123.261 Y70.901 E2.41001
G1 X125.74 Y70.492 E2.49358
G1 X128.215 Y70.014 E2.57742
G1 X130.642 Y69.47 E2.66015
G1 X133.121 Y68.841 E2.74521
G1 X135.49 Y68.167 E2.82713
G1 X137.945 Y67.395 E2.91273
G1 X140.308 Y66.577 E2.9959
G1 X142.659 Y65.688 E3.07949
G1 X145.005 Y64.725 E3.16384
G1 X147.276 Y63.714 E3.24652
G1 X149.556 Y62.623 E3.33059
G1 X151.809 Y61.466 E3.41483
G1 X153.846 Y60.352 E3.49205
G1 X154.722 Y59.926 E3.52445
G1 X155.631 Y59.578 E3.55682
G1 X156.568 Y59.312 E3.58922
G1 X157.525 Y59.131 E3.62161
G1 X158.496 Y59.034 E3.65407
G1 X159.497 Y59.024 E3.68736
G1 X160.027 Y59.044 E3.705
G1 X160.927 Y59.116 E3.73503
G1 X161.958 Y59.292 E3.76982
G1 X162.866 Y59.534 E3.80107
G1 X163.814 Y59.878 E3.83462
G1 X164.695 Y60.29 E3.86696
G1 X165.477 Y60.741 E3.89699
G1 X166.333 Y61.343 E3.93179
G1 X167.075 Y61.973 E3.96417
G1 X167.759 Y62.666 E3.99655
G1 X168.378 Y63.417 E4.02892
G1 X168.93 Y64.221 E4.06136
G1 X169.407 Y65.069 E4.09372
G1 X169.807 Y65.956 E4.12608
G1 X170.13 Y66.877 E4.15855
G1 X170.367 Y67.82 E4.19089
G1 X170.521 Y68.784 E4.22336
G1 X170.591 Y69.806 E4.25743
G1 X170.603 Y70.51 E4.28085
G1 X170.602 Y149.391 E6.90444
G1 X170.59 Y150.152 E6.92975
G1 X170.532 Y151.125 E6.96217
G1 X170.386 Y152.088 E6.99457
G1 X170.155 Y153.035 E7.02699
G1 X169.842 Y153.957 E7.05937
G1 X169.45 Y154.848 E7.09175
G1 X168.998 Y155.67 E7.12295
G1 X168.436 Y156.508 E7.15651
G1 X167.846 Y157.238 E7.18773
G1 X167.143 Y157.964 E7.22134
G1 X166.407 Y158.6 E7.25369
G1 X165.617 Y159.17 E7.28609
G1 X164.841 Y159.633 E7.31615
G1 X163.901 Y160.086 E7.35085
G1 X162.988 Y160.428 E7.38328
G1 X162.049 Y160.687 E7.41568
G1 X161.092 Y160.862 E7.44804
G1 X160.114 Y160.955 E7.48071
G1 X159.594 Y160.978 E7.49802
G1 X158.621 Y160.977 E7.53039
G1 X157.651 Y160.891 E7.56278
G1 X156.693 Y160.719 E7.59515
G1 X155.752 Y160.464 E7.62757
G1 X154.869 Y160.138 E7.65888
G1 X153.826 Y159.638 E7.69735
G1 X152.764 Y159.057 E7.73761
G1 X150.518 Y157.869 E7.82212
G1 X148.282 Y156.763 E7.90509
G1 X145.984 Y155.709 E7.98918
G1 X143.671 Y154.725 E8.07278
G1 X141.321 Y153.802 E8.15676
G1 X138.955 Y152.95 E8.2404
G1 X136.561 Y152.164 E8.3242
G1 X134.138 Y151.443 E8.40829
G1 X131.747 Y150.805 E8.49059
G1 X129.25 Y150.216 E8.57592
G1 X126.768 Y149.702 E8.66023
G1 X124.347 Y149.271 E8.74201
G1 X121.833 Y148.898 E8.82655
G1 X119.303 Y148.594 E8.9113
G1 X116.853 Y148.37 E8.99313
G1 X114.329 Y148.212 E9.07724
G1 X111.797 Y148.125 E9.1615
G1 X109.266 Y148.109 E9.24569
G1 X106.769 Y148.165 E9.32876
G1 X104.283 Y148.29 E9.41155
G1 X101.751 Y148.489 E9.49602
G1 X99.232 Y148.76 E9.58029
G1 X96.739 Y149.099 E9.66397
G1 X94.26 Y149.508 E9.74753
G1 X91.785 Y149.986 E9.83137
G1 X89.358 Y150.53 E9.9141
G1 X86.879 Y151.159 E9.99916
G1 X84.51 Y151.833 E10.08108
G1 X82.055 Y152.605 E10.16668
G1 X79.692 Y153.423 E10.24985
G1 X77.341 Y154.312 E10.33345
G1 X74.995 Y155.275 E10.41779
G1 X72.724 Y156.286 E10.50048
G1 X70.444 Y157.377 E10.58454
G1 X68.191 Y158.534 E10.66878
G1 X66.154 Y159.648 E10.746
G1 X65.278 Y160.074 E10.7784
G1 X64.369 Y160.422 E10.81077
G1 X63.432 Y160.688 E10.84317
G1 X62.475 Y160.869 E10.87556
G1 X61.504 Y160.966 E10.90802
G1 X60.505 Y160.976 E10.94125
G1 X59.973 Y160.956 E10.95896
G1 X59.073 Y160.884 E10.98899
G1 X58.041 Y160.708 E11.02381
G1 X57.1 Y160.456 E11.05621
G1 X56.187 Y160.123 E11.08853
G1 X55.335 Y159.726 E11.11979
G1 X54.462 Y159.22 E11.15335
G1 X53.667 Y158.658 E11.18574
G1 X52.925 Y158.029 E11.21809
G1 X52.24 Y157.336 E11.2505
G1 X51.663 Y156.641 E11.28054
G1 X51.07 Y155.781 E11.31529
G1 X50.592 Y154.932 E11.34769
G1 X50.192 Y154.044 E11.38008
G1 X49.87 Y153.125 E11.41247
G1 X49.632 Y152.182 E11.44482
G1 X49.486 Y151.291 E11.47485
G1 X49.407 Y150.14 E11.51322
G1 X49.398 Y149.565 E11.53235
G1 X49.397 Y70.712 E14.15501
G1 X49.41 Y69.839 E14.18405
G1 X49.469 Y68.865 E14.21651
G1 X49.616 Y67.904 E14.24884
G1 X49.847 Y66.957 E14.28126
G1 X50.147 Y66.069 E14.31244
G1 X50.553 Y65.144 E14.34603
G1 X50.988 Y64.352 E14.37609
G1 X51.57 Y63.486 E14.41079
G1 X52.184 Y62.729 E14.44321
G1 X52.862 Y62.031 E14.47558
G1 X53.599 Y61.395 E14.50795
M204 S2000
G0 F7500 X53.833 Y61.719
M204 S500
G1 F1500 X54.595 Y61.169 E14.53921
G1 X55.371 Y60.707 E14.56925
G1 X56.248 Y60.285 E14.60162
G1 X57.126 Y59.955 E14.63282
G1 X58.031 Y59.704 E14.66405
G1 X58.955 Y59.535 E14.69529
G1 X59.903 Y59.446 E14.72696
G1 X60.404 Y59.423 E14.74364
G1 X61.342 Y59.421 E14.77484
G1 X62.278 Y59.502 E14.80609
G1 X63.201 Y59.667 E14.83728
G1 X64.106 Y59.911 E14.86845
G1 X64.954 Y60.221 E14.89848
G1 X65.977 Y60.712 E14.93622
G1 X66.968 Y61.254 E14.97379
G1 X69.293 Y62.484 E15.06128
G1 X71.551 Y63.601 E15.14506
G1 X73.849 Y64.655 E15.22915
G1 X76.172 Y65.643 E15.31311
G1 X78.543 Y66.574 E15.39783
G1 X80.92 Y67.43 E15.48186
G1 X83.314 Y68.216 E15.56567
G1 X85.748 Y68.94 E15.65013
G1 X88.161 Y69.584 E15.7332
G1 X90.669 Y70.176 E15.81891
G1 X93.15 Y70.69 E15.90318
G1 X95.594 Y71.125 E15.98574
G1 X98.108 Y71.498 E16.07027
G1 X100.649 Y71.803 E16.15539
G1 X103.122 Y72.029 E16.23799
G1 X105.657 Y72.188 E16.32247
G1 X108.189 Y72.275 E16.40673
G1 X110.74 Y72.291 E16.49158
G1 X113.24 Y72.235 E16.57475
G1 X115.748 Y72.11 E16.65827
G1 X118.29 Y71.909 E16.74308
G1 X120.811 Y71.638 E16.82742
G1 X123.326 Y71.296 E16.91183
G1 X125.81 Y70.886 E16.99557
G1 X128.291 Y70.406 E17.07962
G1 X130.74 Y69.858 E17.16309
G1 X133.219 Y69.229 E17.24815
G1 X135.61 Y68.549 E17.33083
G1 X138.065 Y67.777 E17.41643
G1 X140.439 Y66.955 E17.49998
G1 X142.811 Y66.058 E17.58433
G1 X145.157 Y65.095 E17.66868
G1 X147.449 Y64.075 E17.75212
G1 X149.729 Y62.984 E17.83618
G1 X151.992 Y61.822 E17.9208
G1 X154.022 Y60.711 E17.99776
G1 X154.865 Y60.299 E18.02897
G1 X155.741 Y59.963 E18.06018
G1 X156.643 Y59.705 E18.09138
G1 X157.565 Y59.529 E18.1226
G1 X158.5 Y59.434 E18.15386
G1 X159.482 Y59.424 E18.18652
G1 X159.995 Y59.443 E18.2036
G1 X160.895 Y59.515 E18.23363
G1 X161.855 Y59.679 E18.26602
G1 X162.763 Y59.921 E18.29727
G1 X163.645 Y60.24 E18.32847
G1 X164.495 Y60.637 E18.35967
G1 X165.277 Y61.088 E18.3897
G1 X166.075 Y61.648 E18.42212
G1 X166.791 Y62.254 E18.45332
G1 X167.451 Y62.921 E18.48453
G1 X168.049 Y63.644 E18.51574
G1 X168.582 Y64.418 E18.54699
G1 X169.043 Y65.234 E18.57816
G1 X169.43 Y66.089 E18.60938
G1 X169.742 Y66.975 E18.64062
G1 X169.972 Y67.884 E18.67181
G1 X170.122 Y68.812 E18.70307
G1 X170.191 Y69.813 E18.73645
G1 X170.203 Y70.51 E18.75963
G1 X170.202 Y149.385 E21.38302
G1 X170.191 Y150.129 E21.40777
G1 X170.136 Y151.066 E21.43899
G1 X169.997 Y151.994 E21.4702
G1 X169.776 Y152.907 E21.50144
G1 X169.476 Y153.796 E21.53265
G1 X169.099 Y154.655 E21.56385
G1 X168.647 Y155.477 E21.59505
G1 X168.124 Y156.257 E21.62629
G1 X167.558 Y156.96 E21.65631
G1 X166.881 Y157.662 E21.68874
G1 X166.173 Y158.276 E21.71991
G1 X165.412 Y158.826 E21.75114
G1 X164.636 Y159.289 E21.7812
G1 X163.76 Y159.712 E21.81355
G1 X162.881 Y160.043 E21.84479
G1 X161.977 Y160.294 E21.876
G1 X161.054 Y160.464 E21.90721
G1 X160.096 Y160.555 E21.93922
G1 X159.594 Y160.578 E21.95593
G1 X158.656 Y160.579 E21.98713
G1 X157.721 Y160.497 E22.01835
G1 X156.797 Y160.333 E22.04956
G1 X155.891 Y160.089 E22.08077
G1 X155.008 Y159.763 E22.11207
G1 X154.018 Y159.287 E22.14861
G1 X152.951 Y158.703 E22.18907
G1 X150.705 Y157.515 E22.27358
G1 X148.449 Y156.399 E22.35729
G1 X146.151 Y155.345 E22.44138
G1 X143.828 Y154.357 E22.52534
G1 X141.457 Y153.426 E22.61006
G1 X139.08 Y152.57 E22.69409
G1 X136.686 Y151.784 E22.7779
G1 X134.252 Y151.06 E22.86236
G1 X131.839 Y150.416 E22.94542
G1 X129.331 Y149.824 E23.03113
G1 X126.849 Y149.31 E23.11543
G1 X124.406 Y148.875 E23.19797
G1 X121.892 Y148.502 E23.2825
G1 X119.351 Y148.197 E23.36762
G1 X116.878 Y147.971 E23.45021
G1 X114.343 Y147.812 E23.53469
G1 X111.811 Y147.725 E23.61896
G1 X109.26 Y147.709 E23.70381
G1 X106.76 Y147.765 E23.78698
G1 X104.252 Y147.891 E23.8705
G1 X101.71 Y148.091 E23.95531
G1 X99.189 Y148.362 E24.03964
G1 X96.674 Y148.704 E24.12406
G1 X94.19 Y149.114 E24.20779
G1 X91.709 Y149.594 E24.29184
G1 X89.26 Y150.142 E24.37531
G1 X86.781 Y150.771 E24.46038
G1 X84.39 Y151.451 E24.54306
G1 X81.935 Y152.223 E24.62865
G1 X79.561 Y153.045 E24.71221
G1 X77.189 Y153.942 E24.79656
G1 X74.843 Y154.905 E24.8809
G1 X72.551 Y155.925 E24.96434
G1 X70.271 Y157.016 E25.04841
G1 X68.008 Y158.178 E25.13302
G1 X65.978 Y159.289 E25.20999
G1 X65.135 Y159.701 E25.2412
G1 X64.259 Y160.037 E25.2724
G1 X63.357 Y160.295 E25.30361
G1 X62.435 Y160.471 E25.33483
G1 X61.5 Y160.566 E25.36608
G1 X60.52 Y160.576 E25.39868
G1 X60.005 Y160.557 E25.41582
G1 X59.105 Y160.485 E25.44585
G1 X58.144 Y160.321 E25.47828
G1 X57.237 Y160.08 E25.50949
G1 X56.356 Y159.76 E25.54066
G1 X55.504 Y159.363 E25.57193
G1 X54.692 Y158.893 E25.60313
G1 X53.925 Y158.353 E25.63433
G1 X53.209 Y157.747 E25.66553
G1 X52.548 Y157.08 E25.69676
G1 X51.971 Y156.385 E25.72681
G1 X51.418 Y155.584 E25.75918
G1 X50.956 Y154.767 E25.7904
G1 X50.569 Y153.912 E25.82161
G1 X50.258 Y153.026 E25.85284
G1 X50.027 Y152.117 E25.88404
G1 X49.881 Y151.226 E25.91407
G1 X49.807 Y150.134 E25.95047
G1 X49.798 Y149.565 E25.9694
G1 X49.797 Y70.718 E28.59186
G1 X49.809 Y69.863 E28.6203
G1 X49.865 Y68.925 E28.65155
G1 X50.005 Y67.998 E28.68274
G1 X50.226 Y67.085 E28.71398
G1 X50.514 Y66.229 E28.74402
G1 X50.904 Y65.337 E28.7764
G1 X51.339 Y64.545 E28.80645
G1 X51.881 Y63.737 E28.83881
G1 X52.471 Y63.007 E28.87003
G1 X53.124 Y62.333 E28.90124
G1 X53.833 Y61.719 E28.93244
M204 S2000
G0 F7500 X54.068 Y62.043
M204 S500
G1 F1500 X54.8 Y61.513 E28.9625
G1 X55.576 Y61.051 E28.99254
G1 X56.389 Y60.659 E29.02256
G1 X57.234 Y60.34 E29.0526
G1 X58.104 Y60.097 E29.08264
G1 X58.992 Y59.933 E29.11267
G1 X59.922 Y59.846 E29.14374
G1 X60.405 Y59.823 E29.15982
G1 X61.308 Y59.82 E29.18986
G1 X62.208 Y59.896 E29.2199
G1 X63.097 Y60.053 E29.24992
G1 X63.969 Y60.287 E29.27995
G1 X64.817 Y60.597 E29.30998
G1 X65.785 Y61.063 E29.34572
G1 X66.781 Y61.608 E29.38348
G1 X69.108 Y62.839 E29.47104
G1 X71.384 Y63.965 E29.55549
G1 X73.682 Y65.019 E29.63958
G1 X76.015 Y66.011 E29.7239
G1 X78.407 Y66.95 E29.80937
G1 X80.795 Y67.81 E29.89379
G1 X83.189 Y68.596 E29.9776
G1 X85.645 Y69.327 E30.06282
G1 X88.058 Y69.97 E30.14588
G1 X90.588 Y70.568 E30.23235
G1 X93.07 Y71.082 E30.31665
G1 X95.535 Y71.521 E30.39993
G1 X98.049 Y71.894 E30.48446
G1 X100.601 Y72.2 E30.56995
G1 X103.097 Y72.428 E30.65331
G1 X105.643 Y72.588 E30.73816
G1 X108.175 Y72.675 E30.82242
G1 X110.747 Y72.691 E30.90797
G1 X113.249 Y72.635 E30.99121
G1 X115.779 Y72.508 E31.07546
G1 X118.331 Y72.307 E31.1606
G1 X120.854 Y72.036 E31.245
G1 X123.391 Y71.691 E31.33016
G1 X125.88 Y71.28 E31.41406
G1 X128.367 Y70.798 E31.49832
G1 X130.838 Y70.246 E31.58253
G1 X133.317 Y69.617 E31.6676
G1 X135.73 Y68.931 E31.75103
G1 X138.185 Y68.159 E31.83663
G1 X140.57 Y67.333 E31.92058
G1 X142.963 Y66.428 E32.00567
G1 X145.309 Y65.465 E32.09002
G1 X147.622 Y64.436 E32.17422
G1 X149.902 Y63.345 E32.25828
G1 X152.175 Y62.178 E32.34327
G1 X154.198 Y61.07 E32.41998
G1 X155.009 Y60.672 E32.45003
G1 X155.851 Y60.347 E32.48005
G1 X156.719 Y60.098 E32.51008
G1 X157.606 Y59.927 E32.54013
G1 X158.504 Y59.834 E32.57016
G1 X159.467 Y59.824 E32.60219
G1 X159.963 Y59.842 E32.61869
G1 X160.863 Y59.914 E32.64872
G1 X161.753 Y60.066 E32.67875
G1 X162.627 Y60.297 E32.70882
G1 X163.476 Y60.603 E32.73884
G1 X164.295 Y60.984 E32.76888
G1 X165.077 Y61.435 E32.79891
G1 X165.817 Y61.954 E32.82897
G1 X166.507 Y62.536 E32.85899
G1 X167.143 Y63.177 E32.88903
G1 X167.72 Y63.872 E32.91907
G1 X168.234 Y64.615 E32.94912
G1 X168.679 Y65.4 E32.97913
G1 X169.053 Y66.222 E33.00917
G1 X169.354 Y67.074 E33.03922
G1 X169.577 Y67.949 E33.06926
G1 X169.723 Y68.84 E33.09929
G1 X169.791 Y69.82 E33.13196
G1 X169.803 Y70.51 E33.15491
G1 X169.802 Y149.379 E35.7781
G1 X169.792 Y150.106 E35.80229
G1 X169.74 Y151.008 E35.83234
G1 X169.608 Y151.901 E35.86236
G1 X169.397 Y152.78 E35.89243
G1 X169.11 Y153.636 E35.92246
G1 X168.748 Y154.463 E35.95248
G1 X168.314 Y155.255 E35.98252
G1 X167.812 Y156.006 E36.01256
G1 X167.246 Y156.709 E36.04258
G1 X166.619 Y157.36 E36.07265
G1 X165.938 Y157.952 E36.10266
G1 X165.207 Y158.482 E36.13269
G1 X164.431 Y158.945 E36.16274
G1 X163.618 Y159.338 E36.19278
G1 X162.773 Y159.658 E36.22283
G1 X161.904 Y159.901 E36.25284
G1 X161.016 Y160.066 E36.28288
G1 X160.077 Y160.155 E36.31425
G1 X159.593 Y160.178 E36.33037
G1 X158.69 Y160.18 E36.3604
G1 X157.79 Y160.103 E36.39045
G1 X156.901 Y159.947 E36.42047
G1 X156.029 Y159.713 E36.4505
G1 X155.181 Y159.402 E36.48054
G1 X154.21 Y158.936 E36.51636
G1 X153.138 Y158.349 E36.55701
G1 X150.892 Y157.161 E36.64152
G1 X148.616 Y156.035 E36.72598
G1 X146.318 Y154.981 E36.81006
G1 X143.985 Y153.989 E36.89438
G1 X141.593 Y153.05 E36.97985
G1 X139.205 Y152.19 E37.06427
G1 X136.811 Y151.404 E37.14808
G1 X134.355 Y150.673 E37.23331
G1 X131.942 Y150.03 E37.31636
G1 X129.412 Y149.432 E37.40283
G1 X126.93 Y148.918 E37.48713
G1 X124.465 Y148.479 E37.57041
G1 X121.951 Y148.106 E37.65494
G1 X119.399 Y147.8 E37.74043
G1 X116.903 Y147.572 E37.82379
G1 X114.357 Y147.412 E37.90864
G1 X111.825 Y147.325 E37.9929
G1 X109.253 Y147.309 E38.07845
G1 X106.751 Y147.365 E38.16169
G1 X104.221 Y147.492 E38.24594
G1 X101.669 Y147.693 E38.33108
G1 X99.146 Y147.964 E38.41548
G1 X96.609 Y148.309 E38.50064
G1 X94.12 Y148.72 E38.58455
G1 X91.633 Y149.202 E38.6688
G1 X89.162 Y149.754 E38.75301
G1 X86.683 Y150.383 E38.83808
G1 X84.27 Y151.069 E38.92152
G1 X81.815 Y151.841 E39.00711
G1 X79.43 Y152.667 E39.09106
G1 X77.037 Y153.572 E39.17615
G1 X74.691 Y154.535 E39.2605
G1 X72.378 Y155.564 E39.3447
G1 X70.098 Y156.655 E39.42877
G1 X67.825 Y157.822 E39.51375
G1 X65.802 Y158.93 E39.59047
G1 X64.991 Y159.328 E39.62051
G1 X64.149 Y159.653 E39.65053
G1 X63.281 Y159.902 E39.68057
G1 X62.394 Y160.073 E39.71061
G1 X61.496 Y160.166 E39.74064
G1 X60.534 Y160.176 E39.77264
G1 X60.037 Y160.158 E39.78918
G1 X59.137 Y160.086 E39.81921
G1 X58.246 Y159.934 E39.84927
G1 X57.373 Y159.704 E39.8793
G1 X56.524 Y159.397 E39.90932
G1 X55.704 Y159.017 E39.93938
G1 X54.922 Y158.565 E39.96942
