;FLAVOR:Marlin
;TIME:8658
;Filament used: 6.1368m
;Layer height: 0.2
;MINX:60.496
;MINY:3.625
;MINZ:0.2
;MAXX:170.262
;MAXY:105.583
;MAXZ:9.6
;Generated with Cura_SteamEngine 5.4.0
M82 ;absolute extrusion mode
; Ender 3 S1 Pro Start G-code
; M413 S0 ; Disable power loss recovery
G92 E0 ; Reset Extruder

; Prep surfaces before auto home for better accuracy
M140 S60
M104 S200

G28 O ; Home all untrusted axes
G1 Z10.0 F3000 ; Move Z Axis up little to prevent scratching of Heat Bed
G1 X0 Y0

M190 S60
M109 S200

G1 X0.1 Y20 Z0.3 F5000.0 ; Move to start position
G1 X0.1 Y200.0 Z0.3 F1500.0 E15 ; Draw the first line
G1 X0.4 Y200.0 Z0.3 F5000.0 ; Move to side a little
G1 X0.4 Y20 Z0.3 F1500.0 E30 ; Draw the second line
G92 E0 ; Reset Extruder
G1 Z2.0 F3000 ; Move Z Axis up little to prevent scratching of Heat Bed
G1 X5 Y20 Z0.3 F5000.0 ; Move over to prevent blob squish

G92 E0
G92 E0
G1 F2400 E-0.8
;LAYER_COUNT:48
;LAYER:0
M107
M204 S2000
G0 F7500 X147.855 Y13.447 Z0.2
M204 S500
;TYPE:SKIRT
G1 F2400 E0
G1 F1500 X148.002 Y12.486 E0.03233
G1 X148.233 Y11.539 E0.06476
G1 X148.547 Y10.617 E0.09715
G1 X148.94 Y9.726 E0.12954
G1 X149.375 Y8.934 E0.15959
G1 X149.958 Y8.067 E0.19434
G1 X150.548 Y7.338 E0.22554
G1 X151.251 Y6.613 E0.25913
G1 X151.989 Y5.978 E0.29151
G1 X152.779 Y5.409 E0.32389
G1 X153.586 Y4.93 E0.3551
G1 X154.497 Y4.494 E0.38869
G1 X155.375 Y4.165 E0.41988
G1 X156.348 Y3.896 E0.45345
G1 X157.306 Y3.722 E0.48584
G1 X158.272 Y3.633 E0.5181
G1 X159.15 Y3.625 E0.54731
G1 X159.647 Y3.642 E0.56385
G1 X160.617 Y3.72 E0.59621
G1 X161.508 Y3.869 E0.62626
G1 X162.52 Y4.132 E0.66104
G1 X163.434 Y4.461 E0.69335
G1 X164.255 Y4.838 E0.72339
G1 X165.163 Y5.359 E0.75821
G1 X165.96 Y5.918 E0.79059
G1 X166.704 Y6.545 E0.82295
G1 X167.367 Y7.209 E0.85416
G1 X168.013 Y7.984 E0.88772
G1 X168.529 Y8.725 E0.91775
G1 X169.048 Y9.633 E0.95254
G1 X169.452 Y10.518 E0.98489
G1 X169.776 Y11.437 E1.0173
G1 X170.019 Y12.38 E1.04969
G1 X170.167 Y13.271 E1.07973
G1 X170.249 Y14.372 E1.11645
G1 X170.262 Y15.048 E1.13894
G1 X170.261 Y93.991 E3.7646
G1 X170.249 Y94.752 E3.78991
G1 X170.191 Y95.725 E3.82233
G1 X170.045 Y96.688 E3.85473
G1 X169.814 Y97.635 E3.88715
G1 X169.501 Y98.557 E3.91953
G1 X169.109 Y99.448 E3.95191
G1 X168.657 Y100.27 E3.98311
G1 X168.095 Y101.108 E4.01667
G1 X167.505 Y101.838 E4.04789
G1 X166.802 Y102.564 E4.0815
G1 X166.066 Y103.2 E4.11385
G1 X165.276 Y103.77 E4.14625
G1 X164.5 Y104.233 E4.17631
G1 X163.56 Y104.686 E4.21101
G1 X162.647 Y105.028 E4.24344
G1 X161.709 Y105.287 E4.27581
G1 X160.753 Y105.462 E4.30813
G1 X159.862 Y105.548 E4.3379
G1 X159.376 Y105.575 E4.35409
G1 X158.403 Y105.583 E4.38646
G1 X157.502 Y105.514 E4.41651
G1 X156.472 Y105.34 E4.45125
G1 X155.53 Y105.093 E4.48364
G1 X154.679 Y104.789 E4.5137
G1 X153.731 Y104.352 E4.54842
G1 X152.887 Y103.865 E4.58083
G1 X152.09 Y103.305 E4.61323
G1 X151.346 Y102.678 E4.64559
G1 X150.708 Y102.039 E4.67562
G1 X150.039 Y101.238 E4.71033
G1 X149.504 Y100.467 E4.74155
G1 X149.003 Y99.588 E4.7752
G1 X148.6 Y98.702 E4.80757
G1 X148.277 Y97.784 E4.83994
G1 X148.034 Y96.841 E4.87233
G1 X147.886 Y95.95 E4.90237
G1 X147.804 Y94.806 E4.94051
G1 X147.783 Y93.64 E4.9793
G1 X147.783 Y15.125 E7.59072
G1 X147.795 Y14.42 E7.61417
G1 X147.855 Y13.447 E7.6466
M204 S2000
G0 F7500 X148.251 Y13.507
M204 S500
G1 F1500 X148.391 Y12.58 E7.67778
G1 X148.612 Y11.667 E7.70902
G1 X148.913 Y10.778 E7.74024
G1 X149.291 Y9.919 E7.77145
G1 X149.726 Y9.127 E7.80151
G1 X150.269 Y8.319 E7.83389
G1 X150.859 Y7.59 E7.86508
G1 X151.512 Y6.916 E7.89629
G1 X152.223 Y6.302 E7.92754
G1 X152.984 Y5.753 E7.95875
G1 X153.759 Y5.291 E7.98876
G1 X154.637 Y4.869 E8.02116
G1 X155.515 Y4.54 E8.05234
G1 X156.42 Y4.289 E8.08358
G1 X157.343 Y4.12 E8.11479
G1 X158.276 Y4.033 E8.14595
G1 X159.137 Y4.025 E8.17459
G1 X159.615 Y4.041 E8.1905
G1 X160.551 Y4.115 E8.22173
G1 X161.442 Y4.264 E8.25178
G1 X162.385 Y4.508 E8.28417
G1 X163.267 Y4.825 E8.31535
G1 X164.088 Y5.202 E8.34539
G1 X164.934 Y5.687 E8.37783
G1 X165.703 Y6.224 E8.40902
G1 X166.421 Y6.828 E8.44023
G1 X167.084 Y7.492 E8.47144
G1 X167.685 Y8.213 E8.50266
G1 X168.201 Y8.954 E8.53269
G1 X168.684 Y9.8 E8.56509
G1 X169.075 Y10.652 E8.59627
G1 X169.389 Y11.537 E8.6275
G1 X169.624 Y12.446 E8.65873
G1 X169.772 Y13.337 E8.68877
G1 X169.849 Y14.38 E8.72356
G1 X169.862 Y15.048 E8.74578
G1 X169.861 Y93.985 E11.37123
G1 X169.85 Y94.729 E11.39598
G1 X169.795 Y95.666 E11.4272
G1 X169.656 Y96.594 E11.45841
G1 X169.435 Y97.507 E11.48965
G1 X169.135 Y98.396 E11.52086
G1 X168.758 Y99.255 E11.55206
G1 X168.306 Y100.077 E11.58326
G1 X167.783 Y100.857 E11.6145
G1 X167.217 Y101.56 E11.64452
G1 X166.54 Y102.262 E11.67695
G1 X165.832 Y102.876 E11.70812
G1 X165.071 Y103.426 E11.73935
G1 X164.295 Y103.889 E11.76941
G1 X163.419 Y104.312 E11.80176
G1 X162.54 Y104.643 E11.833
G1 X161.636 Y104.894 E11.86421
G1 X160.714 Y105.064 E11.89539
G1 X159.84 Y105.149 E11.9246
G1 X159.372 Y105.175 E11.94018
G1 X158.434 Y105.184 E11.97138
G1 X157.533 Y105.115 E12.00144
G1 X156.573 Y104.953 E12.03382
G1 X155.665 Y104.716 E12.06503
G1 X154.814 Y104.412 E12.09509
G1 X153.93 Y104.005 E12.12746
G1 X153.116 Y103.537 E12.15869
G1 X152.347 Y102.999 E12.1899
G1 X151.629 Y102.395 E12.22111
G1 X150.991 Y101.756 E12.25114
G1 X150.367 Y101.009 E12.28352
G1 X149.851 Y100.268 E12.31355
G1 X149.367 Y99.422 E12.34597
G1 X148.977 Y98.568 E12.37719
G1 X148.664 Y97.684 E12.40838
G1 X148.429 Y96.775 E12.43961
G1 X148.281 Y95.884 E12.46965
G1 X148.204 Y94.799 E12.50583
G1 X148.183 Y93.633 E12.54462
G1 X148.183 Y15.131 E15.1556
G1 X148.194 Y14.444 E15.17846
G1 X148.251 Y13.507 E15.20968
M204 S2000
G0 F7500 X148.647 Y13.566
M204 S500
G1 F1500 X148.78 Y12.673 E15.23971
G1 X148.991 Y11.795 E15.26974
G1 X149.279 Y10.939 E15.29978
G1 X149.642 Y10.112 E15.32982
G1 X150.077 Y9.32 E15.35987
G1 X150.58 Y8.57 E15.38991
G1 X151.147 Y7.868 E15.41992
G1 X151.774 Y7.218 E15.44996
G1 X152.457 Y6.626 E15.48002
G1 X153.189 Y6.097 E15.51006
G1 X153.964 Y5.635 E15.54007
G1 X154.778 Y5.243 E15.57012
G1 X155.623 Y4.925 E15.60015
G1 X156.493 Y4.682 E15.63019
G1 X157.381 Y4.518 E15.66023
G1 X158.28 Y4.433 E15.69026
G1 X159.124 Y4.425 E15.71833
G1 X159.584 Y4.44 E15.73364
G1 X160.485 Y4.51 E15.7637
G1 X161.376 Y4.659 E15.79375
G1 X162.25 Y4.885 E15.82377
G1 X163.1 Y5.189 E15.8538
G1 X163.921 Y5.566 E15.88384
G1 X164.705 Y6.015 E15.91389
G1 X165.446 Y6.531 E15.94393
G1 X166.138 Y7.111 E15.97396
G1 X166.777 Y7.749 E16.00399
G1 X167.357 Y8.442 E16.03405
G1 X167.873 Y9.183 E16.06408
G1 X168.321 Y9.967 E16.09411
G1 X168.698 Y10.787 E16.12413
G1 X169.002 Y11.638 E16.15419
G1 X169.229 Y12.512 E16.18422
G1 X169.377 Y13.403 E16.21426
G1 X169.449 Y14.388 E16.24711
G1 X169.462 Y15.048 E16.26907
G1 X169.461 Y93.979 E18.89432
G1 X169.451 Y94.706 E18.9185
G1 X169.399 Y95.608 E18.94855
G1 X169.267 Y96.501 E18.97858
G1 X169.056 Y97.38 E19.00864
G1 X168.769 Y98.236 E19.03867
G1 X168.407 Y99.063 E19.0687
G1 X167.973 Y99.855 E19.09874
G1 X167.471 Y100.606 E19.12878
G1 X166.905 Y101.309 E19.1588
G1 X166.278 Y101.96 E19.18886
G1 X165.597 Y102.552 E19.21887
G1 X164.866 Y103.082 E19.2489
G1 X164.09 Y103.545 E19.27896
G1 X163.277 Y103.938 E19.30899
G1 X162.432 Y104.258 E19.33905
G1 X161.563 Y104.501 E19.36906
G1 X160.675 Y104.666 E19.3991
G1 X159.818 Y104.75 E19.42774
G1 X159.368 Y104.775 E19.44273
G1 X158.465 Y104.785 E19.47276
G1 X157.564 Y104.716 E19.50282
G1 X156.674 Y104.566 E19.53284
G1 X155.8 Y104.339 E19.56287
G1 X154.949 Y104.035 E19.59293
G1 X154.129 Y103.658 E19.62295
G1 X153.345 Y103.209 E19.653
G1 X152.604 Y102.692 E19.68305
G1 X151.912 Y102.112 E19.71308
G1 X151.274 Y101.473 E19.74311
G1 X150.695 Y100.78 E19.77315
G1 X150.179 Y100.039 E19.80318
G1 X149.731 Y99.255 E19.83321
G1 X149.354 Y98.434 E19.86326
G1 X149.051 Y97.584 E19.89327
G1 X148.824 Y96.709 E19.92334
G1 X148.676 Y95.818 E19.95338
G1 X148.604 Y94.792 E19.98759
G1 X148.583 Y93.626 E20.02638
G1 X148.583 Y15.137 E22.63693
G1 X148.593 Y14.468 E22.65919
G1 X148.647 Y13.566 E22.68924
M204 S2000
G1 F2400 E21.88924
;MESH:?????????2.stl
G0 F7500 X158.118 Y94.348
G0 X159.022 Y94.347
M204 S500
;TYPE:WALL-OUTER
G1 F2400 E22.68924
G1 F1250 X159.022 Y14.853 E25.86202
M104 S200
M204 S2000
G1 F2400 E25.06202
;MESH:NONMESH
G0 F300 X159.022 Y14.853 Z0.4
G0 F7500 X158.118 Y14.854
G0 X148.647 Y13.566
;TIME_ELAPSED:37.001687
;LAYER:1
M106 S85
M204 S500
;TYPE:SKIRT
G1 F2400 E25.86202
G1 F1500 X148.78 Y12.673 E25.89205
G1 X148.991 Y11.795 E25.92208
G1 X149.279 Y10.939 E25.95212
G1 X149.642 Y10.112 E25.98216
G1 X150.077 Y9.32 E26.01221
G1 X150.58 Y8.57 E26.04225
G1 X151.147 Y7.868 E26.07226
G1 X151.774 Y7.218 E26.1023
G1 X152.457 Y6.626 E26.13236
G1 X153.189 Y6.097 E26.1624
G1 X153.964 Y5.635 E26.19241
G1 X154.778 Y5.243 E26.22246
G1 X155.623 Y4.925 E26.25249
G1 X156.493 Y4.682 E26.28253
G1 X157.381 Y4.518 E26.31257
G1 X158.28 Y4.433 E26.3426
G1 X159.124 Y4.425 E26.37067
G1 X159.584 Y4.44 E26.38598
G1 X160.485 Y4.51 E26.41604
G1 X161.376 Y4.659 E26.44609
G1 X162.25 Y4.885 E26.47611
G1 X163.1 Y5.189 E26.50614
G1 X163.921 Y5.566 E26.53618
G1 X164.705 Y6.015 E26.56623
G1 X165.446 Y6.531 E26.59627
G1 X166.138 Y7.111 E26.6263
G1 X166.777 Y7.749 E26.65633
G1 X167.357 Y8.442 E26.68639
G1 X167.873 Y9.183 E26.71642
G1 X168.321 Y9.967 E26.74645
G1 X168.698 Y10.787 E26.77647
G1 X169.002 Y11.638 E26.80653
G1 X169.229 Y12.512 E26.83656
G1 X169.377 Y13.403 E26.8666
G1 X169.449 Y14.388 E26.89945
G1 X169.462 Y15.048 E26.92141
G1 X169.461 Y93.979 E29.54666
G1 X169.451 Y94.706 E29.57084
G1 X169.399 Y95.608 E29.60089
G1 X169.267 Y96.501 E29.63092
G1 X169.056 Y97.38 E29.66098
G1 X168.769 Y98.236 E29.69101
G1 X168.407 Y99.063 E29.72104
G1 X167.973 Y99.855 E29.75108
G1 X167.471 Y100.606 E29.78112
G1 X166.905 Y101.309 E29.81114
G1 X166.278 Y101.96 E29.8412
G1 X165.597 Y102.552 E29.87121
G1 X164.866 Y103.082 E29.90124
G1 X164.09 Y103.545 E29.9313
G1 X163.277 Y103.938 E29.96133
G1 X162.432 Y104.258 E29.99139
G1 X161.563 Y104.501 E30.0214
G1 X160.675 Y104.666 E30.05144
G1 X159.818 Y104.75 E30.08008
G1 X159.368 Y104.775 E30.09507
G1 X158.465 Y104.785 E30.1251
G1 X157.564 Y104.716 E30.15516
G1 X156.674 Y104.566 E30.18518
G1 X155.8 Y104.339 E30.21521
G1 X154.949 Y104.035 E30.24527
G1 X154.129 Y103.658 E30.27529
G1 X153.345 Y103.209 E30.30534
G1 X152.604 Y102.692 E30.33539
G1 X151.912 Y102.112 E30.36542
G1 X151.274 Y101.473 E30.39545
G1 X150.695 Y100.78 E30.42549
G1 X150.179 Y100.039 E30.45552
G1 X149.731 Y99.255 E30.48555
G1 X149.354 Y98.434 E30.5156
G1 X149.051 Y97.584 E30.54561
G1 X148.824 Y96.709 E30.57568
G1 X148.676 Y95.818 E30.60572
G1 X148.604 Y94.792 E30.63993
G1 X148.583 Y93.626 E30.67872
G1 X148.583 Y15.137 E33.28927
G1 X148.593 Y14.468 E33.31153
G1 X148.647 Y13.566 E33.34158
M204 S2000
G1 F2400 E32.54158
;MESH:?????????2.stl
G0 F8250 X157.15 Y15.036
G0 X158.531 Y15.357
M204 S500
;TYPE:WALL-INNER
G1 F2400 E33.34158
G1 F1044.3 X158.531 Y93.843 E37.4661
M204 S2000
G0 F8250 X158.015 Y94.387
M204 S500
;TYPE:WALL-OUTER
G1 F1650 X159.047 Y94.331 E37.50047
G1 X159.047 Y14.869 E40.14339
G1 X158.015 Y14.813 E40.17777
G1 X158.015 Y94.387 E42.82441
M204 S2000
G1 F2400 E42.02441
;MESH:NONMESH
G0 F300 X158.015 Y94.387 Z0.6
G0 F8250 X158.283 Y94.106
G0 X158.228 Y15.036
G0 X157.15 Y15.036
G0 X148.647 Y13.566
;TIME_ELAPSED:58.243419
;LAYER:2
M106 S170
M204 S500
;TYPE:SKIRT
G1 F2400 E42.82441
G1 F1500 X148.78 Y12.673 E42.85444
G1 X148.991 Y11.795 E42.88447
G1 X149.279 Y10.939 E42.91451
G1 X149.642 Y10.112 E42.94455
G1 X150.077 Y9.32 E42.9746
G1 X150.58 Y8.57 E43.00464
G1 X151.147 Y7.868 E43.03465
G1 X151.774 Y7.218 E43.06469
G1 X152.457 Y6.626 E43.09475
G1 X153.189 Y6.097 E43.12479
G1 X153.964 Y5.635 E43.1548
G1 X154.778 Y5.243 E43.18485
G1 X155.623 Y4.925 E43.21488
G1 X156.493 Y4.682 E43.24492
G1 X157.381 Y4.518 E43.27496
G1 X158.28 Y4.433 E43.30499
G1 X159.124 Y4.425 E43.33306
G1 X159.584 Y4.44 E43.34837
G1 X160.485 Y4.51 E43.37843
G1 X161.376 Y4.659 E43.40848
G1 X162.25 Y4.885 E43.4385
G1 X163.1 Y5.189 E43.46853
G1 X163.921 Y5.566 E43.49857
G1 X164.705 Y6.015 E43.52862
G1 X165.446 Y6.531 E43.55866
G1 X166.138 Y7.111 E43.58869
G1 X166.777 Y7.749 E43.61872
G1 X167.357 Y8.442 E43.64878
G1 X167.873 Y9.183 E43.67881
G1 X168.321 Y9.967 E43.70884
G1 X168.698 Y10.787 E43.73886
G1 X169.002 Y11.638 E43.76892
G1 X169.229 Y12.512 E43.79895
G1 X169.377 Y13.403 E43.82899
G1 X169.449 Y14.388 E43.86184
G1 X169.462 Y15.048 E43.8838
G1 X169.461 Y93.979 E46.50905
G1 X169.451 Y94.706 E46.53323
G1 X169.399 Y95.608 E46.56328
G1 X169.267 Y96.501 E46.59331
G1 X169.056 Y97.38 E46.62337
G1 X168.769 Y98.236 E46.6534
G1 X168.407 Y99.063 E46.68343
G1 X167.973 Y99.855 E46.71347
G1 X167.471 Y100.606 E46.74351
G1 X166.905 Y101.309 E46.77353
G1 X166.278 Y101.96 E46.80359
G1 X165.597 Y102.552 E46.8336
G1 X164.866 Y103.082 E46.86363
G1 X164.09 Y103.545 E46.89369
G1 X163.277 Y103.938 E46.92372
G1 X162.432 Y104.258 E46.95378
G1 X161.563 Y104.501 E46.98379
G1 X160.675 Y104.666 E47.01383
G1 X159.818 Y104.75 E47.04247
G1 X159.368 Y104.775 E47.05746
G1 X158.465 Y104.785 E47.08749
G1 X157.564 Y104.716 E47.11755
G1 X156.674 Y104.566 E47.14757
G1 X155.8 Y104.339 E47.1776
G1 X154.949 Y104.035 E47.20766
G1 X154.129 Y103.658 E47.23768
G1 X153.345 Y103.209 E47.26773
G1 X152.604 Y102.692 E47.29778
G1 X151.912 Y102.112 E47.32781
G1 X151.274 Y101.473 E47.35784
G1 X150.695 Y100.78 E47.38788
G1 X150.179 Y100.039 E47.41791
G1 X149.731 Y99.255 E47.44794
G1 X149.354 Y98.434 E47.47799
G1 X149.051 Y97.584 E47.508
G1 X148.824 Y96.709 E47.53807
G1 X148.676 Y95.818 E47.56811
G1 X148.604 Y94.792 E47.60232
G1 X148.583 Y93.626 E47.64111
G1 X148.583 Y15.137 E50.25166
G1 X148.593 Y14.468 E50.27392
G1 X148.647 Y13.566 E50.30397
M204 S2000
G1 F2400 E49.50397
;MESH:?????????2.stl
G0 F9000 X156.18 Y15.042
G0 X157.445 Y93.967
M204 S500
;TYPE:WALL-INNER
G1 F2400 E50.30397
G1 F1800 X158.617 Y93.891 E50.34303
G1 X158.617 Y15.308 E52.95671
G1 X158.003 Y15.262 E52.97719
G1 X157.445 Y15.233 E52.99578
G1 X157.445 Y93.967 E55.61448
M204 S2000
G0 F9000 X157.045 Y94.389
M204 S500
;TYPE:WALL-OUTER
G1 F1800 X158.044 Y94.335 E55.64776
G1 X159.017 Y94.262 E55.68021
G1 X159.017 Y14.937 E58.31857
G1 X158.024 Y14.863 E58.35169
G1 X157.045 Y14.812 E58.38429
G1 X157.045 Y94.389 E61.03104
M204 S2000
G0 F9000 X157.313 Y94.107
G0 X157.838 Y93.843
G0 X157.818 Y93.57
M204 S500
;TYPE:SKIN
G1 F1690.1 X157.818 Y15.628 E63.7919
G1 X158.244 Y15.655 E63.80702
G1 X158.244 Y93.542 E66.56594
G1 X157.818 Y93.57 E66.58106
M204 S2000
;MESH:NONMESH
G0 F300 X157.818 Y93.57 Z0.8
G0 F9000 X157.838 Y93.843
G0 X157.345 Y93.966
G0 X156.472 Y93.966
;TIME_ELAPSED:85.503156
;LAYER:3
M106 S255
M204 S500
;TYPE:WALL-INNER
;MESH:?????????2.stl
G1 F1800 X157.034 Y93.937 E66.59978
G1 X158.015 Y93.865 E66.63249
G1 X158.566 Y93.814 E66.6509
G1 X158.566 Y15.383 E69.25952
G1 X157.998 Y15.329 E69.2785
G1 X156.472 Y15.234 E69.32935
G1 X156.472 Y93.966 E71.94799
M204 S2000
G0 F9000 X156.072 Y94.388
M204 S500
;TYPE:WALL-OUTER
G1 F1800 X157.063 Y94.336 E71.981
G1 X158.051 Y94.263 E72.01395
G1 X158.966 Y94.178 E72.04451
G1 X158.966 Y15.02 E74.67732
G1 X158.026 Y14.929 E74.70873
G1 X157.046 Y14.863 E74.7414
G1 X156.072 Y14.812 E74.77384
G1 X156.072 Y94.388 E77.42055
M204 S2000
G0 F9000 X156.34 Y94.107
G0 X156.572 Y93.584
G0 X156.832 Y93.584
M204 S500
;TYPE:SKIN
G1 F1800 X156.832 Y15.616 E80.01377
G1 X158.206 Y15.704 E80.05956
G1 X158.206 Y93.486 E82.6466
G1 X157.937 Y93.513 E82.6556
G1 X156.832 Y93.584 E82.69242
M204 S2000
G0 F9000 X156.572 Y93.584
G0 X158.395 Y93.658
G0 X158.466 Y93.158
G0 X158.005 Y93.159
M204 S500
G1 F1800 X157.848 Y93.315 E82.69979
M204 S2000
G0 F9000 X157.242 Y93.356
M204 S500
G1 F1800 X158.005 Y92.593 E82.73567
M204 S2000
G0 F9000 X158.005 Y92.027
M204 S500
G1 F1800 X157.031 Y93.001 E82.78149
M204 S2000
G0 F9000 X157.031 Y92.435
M204 S500
G1 F1800 X158.005 Y91.462 E82.82728
M204 S2000
G0 F9000 X158.005 Y90.896
M204 S500
G1 F1800 X157.031 Y91.87 E82.87309
M204 S2000
G0 F9000 X157.031 Y91.304
M204 S500
G1 F1800 X158.005 Y90.33 E82.91891
M204 S2000
G0 F9000 X158.005 Y89.765
M204 S500
G1 F1800 X157.031 Y90.738 E82.9647
M204 S2000
