;FLAVOR:Marlin
;TIME:800
;Filament used: 0.208343m
;Layer height: 0.2
;MINX:92.257
;MINY:96.102
;MINZ:0.2
;MAXX:116.481
;MAXY:123.891
;MAXZ:46.4
;Generated with Cura_SteamEngine 5.4.0
M82 ;absolute extrusion mode
; Ender 3 S1 Pro Start G-code
; M413 S0 ; Disable power loss recovery
G92 E0 ; Reset Extruder

; Prep surfaces before auto home for better accuracy
M140 S60
M104 S200

G28 O ; Home all untrusted axes
G1 Z10.0 F3000 ; Move Z Axis up little to prevent scratching of Heat Bed
G1 X0 Y0

M190 S60
M109 S200

G1 X0.1 Y20 Z0.3 F5000.0 ; Move to start position
G1 X0.1 Y200.0 Z0.3 F1500.0 E15 ; Draw the first line
G1 X0.4 Y200.0 Z0.3 F5000.0 ; Move to side a little
G1 X0.4 Y20 Z0.3 F1500.0 E30 ; Draw the second line
G92 E0 ; Reset Extruder
G1 Z2.0 F3000 ; Move Z Axis up little to prevent scratching of Heat Bed
G1 X5 Y20 Z0.3 F5000.0 ; Move over to prevent blob squish

G92 E0
G92 E0
G1 F2400 E-0.8
;LAYER_COUNT:232
;LAYER:0
M107
M204 S2000
G0 F7500 X95.851 Y99.201 Z0.2
M204 S500
;TYPE:SKIRT
G1 F2400 E0
G1 F1500 X96.561 Y98.585 E0.03126
G1 X97.438 Y97.955 E0.06718
G1 X98.308 Y97.439 E0.10082
G1 X99.153 Y97.033 E0.132
G1 X100.165 Y96.653 E0.16796
G1 X101.104 Y96.394 E0.20035
G1 X102.129 Y96.207 E0.23501
G1 X103.121 Y96.114 E0.26815
G1 X103.84 Y96.102 E0.29206
G1 X104.49 Y96.114 E0.31369
G1 X105.497 Y96.178 E0.34725
G1 X106.495 Y96.331 E0.38083
G1 X107.475 Y96.572 E0.4144
G1 X108.364 Y96.874 E0.44562
G1 X109.351 Y97.308 E0.48148
G1 X110.143 Y97.743 E0.51154
G1 X111.069 Y98.366 E0.54866
G1 X111.798 Y98.956 E0.57985
G1 X112.574 Y99.709 E0.61582
G1 X113.231 Y100.474 E0.64935
G1 X113.819 Y101.293 E0.68289
G1 X114.281 Y102.069 E0.71293
G1 X114.765 Y103.076 E0.75009
G1 X115.116 Y104.022 E0.78365
G1 X115.366 Y104.926 E0.81484
G1 X115.562 Y106.002 E0.85122
G1 X115.658 Y107.17 E0.8902
G1 X115.672 Y107.824 E0.91196
G1 X115.673 Y111.82 E1.04486
G1 X115.66 Y112.694 E1.07394
G1 X115.599 Y113.702 E1.10752
G1 X115.447 Y114.701 E1.14113
G1 X115.207 Y115.681 E1.17469
G1 X114.882 Y116.636 E1.20824
G1 X114.475 Y117.56 E1.24182
G1 X114.023 Y118.382 E1.27302
G1 X113.423 Y119.278 E1.30889
G1 X112.833 Y120.009 E1.34013
G1 X112.081 Y120.786 E1.3761
G1 X111.318 Y121.445 E1.40963
G1 X110.588 Y121.975 E1.43964
G1 X109.628 Y122.548 E1.47682
G1 X108.717 Y122.983 E1.5104
G1 X107.805 Y123.325 E1.54279
G1 X106.798 Y123.603 E1.57754
G1 X105.808 Y123.783 E1.61101
G1 X104.827 Y123.876 E1.64378
G1 X104.284 Y123.89 E1.66185
G1 X103.632 Y123.891 E1.68353
G1 X102.623 Y123.844 E1.71713
G1 X101.727 Y123.725 E1.74719
G1 X100.638 Y123.481 E1.78431
G1 X99.712 Y123.182 E1.81668
G1 X98.752 Y122.776 E1.85134
G1 X97.922 Y122.337 E1.88257
G1 X97.016 Y121.748 E1.91851
G1 X96.223 Y121.124 E1.95208
G1 X95.487 Y120.43 E1.98572
G1 X94.817 Y119.676 E2.01927
G1 X94.256 Y118.923 E2.0505
G1 X93.689 Y118.004 E2.08642
G1 X93.27 Y117.165 E2.11761
G1 X92.875 Y116.16 E2.15352
G1 X92.609 Y115.26 E2.18474
G1 X92.396 Y114.177 E2.22145
G1 X92.27 Y112.769 E2.26847
G1 X92.258 Y112.132 E2.28966
G1 X92.257 Y108.141 E2.4224
G1 X92.27 Y107.29 E2.45071
G1 X92.332 Y106.282 E2.4843
G1 X92.484 Y105.283 E2.51791
G1 X92.725 Y104.303 E2.55147
G1 X93.038 Y103.381 E2.58386
G1 X93.458 Y102.427 E2.61853
G1 X93.928 Y101.575 E2.65089
G1 X94.469 Y100.766 E2.68326
G1 X95.151 Y99.923 E2.71932
G1 X95.851 Y99.201 E2.75277
M204 S2000
G0 F7500 X96.114 Y99.503
M204 S500
G1 F1500 X96.795 Y98.91 E2.7828
G1 X97.643 Y98.299 E2.81757
G1 X98.481 Y97.8 E2.85001
G1 X99.326 Y97.394 E2.88119
G1 X100.271 Y97.039 E2.91476
G1 X101.21 Y96.78 E2.94716
G1 X102.167 Y96.605 E2.97952
G1 X103.128 Y96.514 E3.01162
G1 X103.833 Y96.502 E3.03508
G1 X104.465 Y96.513 E3.0561
G1 X105.437 Y96.573 E3.08849
G1 X106.4 Y96.72 E3.12089
G1 X107.346 Y96.951 E3.15328
G1 X108.235 Y97.253 E3.18451
G1 X109.158 Y97.659 E3.21804
G1 X109.95 Y98.094 E3.2481
G1 X110.817 Y98.677 E3.28285
G1 X111.546 Y99.267 E3.31404
G1 X112.271 Y99.97 E3.34763
G1 X112.906 Y100.708 E3.38001
G1 X113.475 Y101.498 E3.41239
G1 X113.937 Y102.274 E3.44243
G1 X114.39 Y103.216 E3.4772
G1 X114.73 Y104.129 E3.5096
G1 X114.98 Y105.033 E3.54079
G1 X115.163 Y106.035 E3.57467
G1 X115.258 Y107.179 E3.61285
G1 X115.272 Y107.824 E3.63431
G1 X115.273 Y111.814 E3.76702
G1 X115.261 Y112.67 E3.79549
G1 X115.203 Y113.643 E3.82791
G1 X115.058 Y114.607 E3.86034
G1 X114.828 Y115.553 E3.89272
G1 X114.516 Y116.475 E3.92509
G1 X114.124 Y117.367 E3.9575
G1 X113.672 Y118.189 E3.9887
G1 X113.111 Y119.027 E4.02224
G1 X112.545 Y119.731 E4.05228
G1 X111.819 Y120.484 E4.08707
G1 X111.083 Y121.121 E4.11945
G1 X110.353 Y121.651 E4.14945
G1 X109.455 Y122.187 E4.18423
G1 X108.577 Y122.608 E4.21662
G1 X107.665 Y122.95 E4.24902
G1 X106.726 Y123.21 E4.28142
G1 X105.77 Y123.385 E4.31375
G1 X104.816 Y123.476 E4.34562
G1 X104.283 Y123.49 E4.36336
G1 X103.65 Y123.491 E4.38441
G1 X102.676 Y123.447 E4.41684
G1 X101.78 Y123.328 E4.4469
G1 X100.761 Y123.1 E4.48163
G1 X99.835 Y122.801 E4.514
G1 X98.939 Y122.422 E4.54635
G1 X98.109 Y121.983 E4.57758
G1 X97.263 Y121.433 E4.61114
G1 X96.497 Y120.832 E4.64353
G1 X95.786 Y120.164 E4.67598
G1 X95.138 Y119.437 E4.70837
G1 X94.577 Y118.684 E4.7396
G1 X94.047 Y117.825 E4.77317
G1 X93.628 Y116.986 E4.80436
G1 X93.259 Y116.047 E4.83792
G1 X92.993 Y115.147 E4.86913
G1 X92.794 Y114.141 E4.90324
G1 X92.67 Y112.761 E4.94932
G1 X92.658 Y112.132 E4.97025
G1 X92.657 Y108.147 E5.10279
G1 X92.669 Y107.314 E5.1305
G1 X92.727 Y106.342 E5.16288
G1 X92.873 Y105.378 E5.19531
G1 X93.104 Y104.432 E5.2277
G1 X93.417 Y103.51 E5.26009
G1 X93.809 Y102.62 E5.29243
G1 X94.261 Y101.797 E5.32366
G1 X94.802 Y100.988 E5.35603
G1 X95.438 Y100.201 E5.38968
G1 X96.114 Y99.503 E5.422
M204 S2000
G0 F7500 X96.377 Y99.805
M204 S500
G1 F1500 X97.058 Y99.212 E5.45204
G1 X97.848 Y98.642 E5.48444
G1 X98.654 Y98.161 E5.51566
G1 X99.499 Y97.755 E5.54684
G1 X100.378 Y97.424 E5.57808
G1 X101.283 Y97.173 E5.60931
G1 X102.205 Y97.003 E5.6405
G1 X103.135 Y96.914 E5.67157
G1 X103.826 Y96.902 E5.69456
G1 X104.441 Y96.912 E5.71501
G1 X105.377 Y96.969 E5.7462
G1 X106.306 Y97.109 E5.77745
G1 X107.217 Y97.33 E5.80863
G1 X108.106 Y97.632 E5.83986
G1 X108.965 Y98.01 E5.87107
G1 X109.757 Y98.445 E5.90113
G1 X110.565 Y98.988 E5.9335
G1 X111.294 Y99.578 E5.9647
G1 X111.968 Y100.231 E5.99591
G1 X112.582 Y100.942 E6.02715
G1 X113.131 Y101.703 E6.05836
G1 X113.593 Y102.479 E6.0884
G1 X114.015 Y103.356 E6.12077
G1 X114.344 Y104.236 E6.15202
G1 X114.594 Y105.14 E6.18322
G1 X114.764 Y106.068 E6.2146
G1 X114.859 Y107.212 E6.25278
G1 X114.872 Y107.824 E6.27314
G1 X114.873 Y111.809 E6.40568
G1 X114.862 Y112.647 E6.43355
G1 X114.807 Y113.584 E6.46477
G1 X114.669 Y114.513 E6.49601
G1 X114.449 Y115.425 E6.52721
G1 X114.15 Y116.314 E6.55841
G1 X113.773 Y117.174 E6.58964
G1 X113.321 Y117.996 E6.62084
G1 X112.799 Y118.776 E6.65206
G1 X112.233 Y119.48 E6.6821
G1 X111.557 Y120.182 E6.71451
G1 X110.848 Y120.797 E6.74573
G1 X110.118 Y121.327 E6.77574
G1 X109.281 Y121.827 E6.80816
G1 X108.436 Y122.234 E6.83936
G1 X107.558 Y122.565 E6.87057
G1 X106.653 Y122.817 E6.90181
G1 X105.732 Y122.987 E6.93296
G1 X104.805 Y123.076 E6.96394
G1 X104.282 Y123.09 E6.98134
G1 X103.667 Y123.091 E7.00179
G1 X102.729 Y123.05 E7.03302
G1 X101.833 Y122.931 E7.06308
G1 X100.883 Y122.719 E7.09546
G1 X99.99 Y122.432 E7.12665
G1 X99.126 Y122.068 E7.15784
G1 X98.296 Y121.629 E7.18907
G1 X97.509 Y121.118 E7.22028
G1 X96.77 Y120.54 E7.25148
G1 X96.084 Y119.898 E7.28273
G1 X95.459 Y119.198 E7.31394
G1 X94.898 Y118.445 E7.34517
G1 X94.405 Y117.646 E7.3764
G1 X93.986 Y116.807 E7.40759
G1 X93.643 Y115.934 E7.43879
G1 X93.377 Y115.034 E7.47
G1 X93.192 Y114.105 E7.50151
G1 X93.07 Y112.753 E7.54666
G1 X93.058 Y112.132 E7.56732
G1 X93.057 Y108.152 E7.69969
G1 X93.068 Y107.337 E7.7268
G1 X93.123 Y106.401 E7.75799
G1 X93.262 Y105.472 E7.78923
G1 X93.483 Y104.56 E7.82044
G1 X93.783 Y103.671 E7.85165
G1 X94.16 Y102.812 E7.88285
G1 X94.594 Y102.019 E7.91292
G1 X95.135 Y101.21 E7.94528
G1 X95.725 Y100.479 E7.97653
G1 X96.377 Y99.805 E8.00772
M204 S2000
G0 F7500 X96.64 Y100.107
M204 S500
G1 F1500 X97.321 Y99.514 E8.03775
G1 X98.053 Y98.985 E8.06779
G1 X98.828 Y98.521 E8.09783
G1 X99.641 Y98.129 E8.12785
G1 X100.486 Y97.809 E8.15791
G1 X101.356 Y97.566 E8.18795
G1 X102.244 Y97.401 E8.21799
G1 X103.142 Y97.314 E8.248
G1 X103.82 Y97.302 E8.27055
G1 X104.417 Y97.311 E8.29041
G1 X105.318 Y97.365 E8.32043
G1 X106.212 Y97.498 E8.35049
G1 X107.089 Y97.709 E8.3805
G1 X107.945 Y97.998 E8.41055
G1 X108.772 Y98.361 E8.44058
G1 X109.564 Y98.796 E8.47064
G1 X110.314 Y99.299 E8.50067
G1 X111.016 Y99.866 E8.53069
G1 X111.666 Y100.493 E8.56073
G1 X112.258 Y101.176 E8.59079
G1 X112.787 Y101.908 E8.62083
G1 X113.249 Y102.684 E8.65086
G1 X113.641 Y103.497 E8.68088
G1 X113.959 Y104.343 E8.71094
G1 X114.201 Y105.213 E8.74098
G1 X114.365 Y106.101 E8.77101
G1 X114.459 Y107.221 E8.8084
G1 X114.472 Y107.824 E8.82846
G1 X114.473 Y111.804 E8.96083
G1 X114.463 Y112.624 E8.98811
G1 X114.411 Y113.526 E9.01816
G1 X114.28 Y114.42 E9.04821
G1 X114.07 Y115.298 E9.07824
G1 X113.783 Y116.154 E9.10826
G1 X113.422 Y116.982 E9.13831
G1 X112.988 Y117.774 E9.16834
G1 X112.487 Y118.525 E9.19837
G1 X111.921 Y119.229 E9.22842
G1 X111.295 Y119.88 E9.25845
G1 X110.613 Y120.473 E9.28851
G1 X109.883 Y121.003 E9.31852
G1 X109.107 Y121.467 E9.34859
G1 X108.294 Y121.86 E9.37862
G1 X107.45 Y122.18 E9.40864
G1 X106.58 Y122.424 E9.4387
G1 X105.693 Y122.589 E9.46871
G1 X104.794 Y122.676 E9.49875
G1 X104.281 Y122.69 E9.51581
G1 X103.684 Y122.691 E9.53567
G1 X102.782 Y122.653 E9.5657
G1 X101.886 Y122.534 E9.59576
G1 X101.005 Y122.338 E9.62578
G1 X100.145 Y122.063 E9.65581
G1 X99.312 Y121.714 E9.68585
G1 X98.513 Y121.293 E9.71589
G1 X97.755 Y120.803 E9.74591
G1 X97.043 Y120.247 E9.77595
G1 X96.382 Y119.631 E9.80601
G1 X95.779 Y118.958 E9.83606
G1 X95.238 Y118.235 E9.86609
G1 X94.763 Y117.467 E9.89613
G1 X94.358 Y116.66 E9.92616
G1 X94.026 Y115.82 E9.9562
G1 X93.769 Y114.955 E9.98621
G1 X93.59 Y114.069 E10.01628
G1 X93.47 Y112.745 E10.0605
G1 X93.458 Y112.132 E10.08089
G1 X93.457 Y108.157 E10.2131
G1 X93.467 Y107.36 E10.23961
G1 X93.519 Y106.459 E10.26962
G1 X93.651 Y105.565 E10.29968
G1 X93.862 Y104.687 E10.32972
G1 X94.149 Y103.831 E10.35974
G1 X94.511 Y103.004 E10.38977
G1 X94.945 Y102.211 E10.41984
G1 X95.447 Y101.461 E10.44985
G1 X96.013 Y100.757 E10.4799
G1 X96.64 Y100.107 E10.50994
M204 S2000
G1 F2400 E9.70994
;MESH:nor2.stl
G0 F7500 X102.993 Y112.194
G0 X103.965 Y112.193
M204 S500
;TYPE:WALL-OUTER
G1 F2400 E10.50994
G1 F974 X103.965 Y107.807 E10.73459
M104 S200
M204 S2000
G1 F2400 E9.93459
;MESH:NONMESH
G0 F300 X103.965 Y107.807 Z0.4
G0 F7500 X103.965 Y106.835
G0 X96.64 Y100.107
;TIME_ELAPSED:18.331004
;LAYER:1
M106 S255
M204 S500
;TYPE:SKIRT
G1 F2400 E10.73459
G1 F600 X97.321 Y99.514 E10.76462
G1 X98.053 Y98.985 E10.79466
G1 X98.828 Y98.521 E10.82471
G1 X99.641 Y98.129 E10.85472
G1 X100.486 Y97.809 E10.88478
G1 X101.356 Y97.566 E10.91482
G1 X102.244 Y97.401 E10.94486
G1 X103.142 Y97.314 E10.97487
G1 X103.82 Y97.302 E10.99742
G1 X104.417 Y97.311 E11.01728
G1 X105.318 Y97.365 E11.0473
G1 X106.212 Y97.498 E11.07736
G1 X107.089 Y97.709 E11.10737
G1 X107.945 Y97.998 E11.13742
G1 X108.772 Y98.361 E11.16746
G1 X109.564 Y98.796 E11.19751
G1 X110.314 Y99.299 E11.22754
G1 X111.016 Y99.866 E11.25756
G1 X111.666 Y100.493 E11.2876
G1 X112.258 Y101.176 E11.31766
G1 X112.787 Y101.908 E11.3477
G1 X113.249 Y102.684 E11.37773
G1 X113.641 Y103.497 E11.40775
G1 X113.959 Y104.343 E11.43781
G1 X114.201 Y105.213 E11.46785
G1 X114.365 Y106.101 E11.49788
G1 X114.459 Y107.221 E11.53527
G1 X114.472 Y107.824 E11.55533
G1 X114.473 Y111.804 E11.6877
G1 X114.463 Y112.624 E11.71498
G1 X114.411 Y113.526 E11.74503
G1 X114.28 Y114.42 E11.77508
G1 X114.07 Y115.298 E11.80511
G1 X113.783 Y116.154 E11.83513
G1 X113.422 Y116.982 E11.86518
G1 X112.988 Y117.774 E11.89522
G1 X112.487 Y118.525 E11.92524
G1 X111.921 Y119.229 E11.95529
G1 X111.295 Y119.88 E11.98532
G1 X110.613 Y120.473 E12.01538
G1 X109.883 Y121.003 E12.04539
G1 X109.107 Y121.467 E12.07546
G1 X108.294 Y121.86 E12.10549
G1 X107.45 Y122.18 E12.13552
G1 X106.58 Y122.424 E12.16557
G1 X105.693 Y122.589 E12.19558
G1 X104.794 Y122.676 E12.22562
G1 X104.281 Y122.69 E12.24269
G1 X103.684 Y122.691 E12.26254
G1 X102.782 Y122.653 E12.29257
G1 X101.886 Y122.534 E12.32263
G1 X101.005 Y122.338 E12.35265
G1 X100.145 Y122.063 E12.38268
G1 X99.312 Y121.714 E12.41272
G1 X98.513 Y121.293 E12.44276
G1 X97.755 Y120.803 E12.47278
G1 X97.043 Y120.247 E12.50282
G1 X96.382 Y119.631 E12.53288
G1 X95.779 Y118.958 E12.56293
G1 X95.238 Y118.235 E12.59296
G1 X94.763 Y117.467 E12.623
G1 X94.358 Y116.66 E12.65303
G1 X94.026 Y115.82 E12.68307
G1 X93.769 Y114.955 E12.71309
G1 X93.59 Y114.069 E12.74315
G1 X93.47 Y112.745 E12.78737
G1 X93.458 Y112.132 E12.80776
G1 X93.457 Y108.157 E12.93997
G1 X93.467 Y107.36 E12.96648
G1 X93.519 Y106.459 E12.9965
G1 X93.651 Y105.565 E13.02655
G1 X93.862 Y104.687 E13.05659
G1 X94.149 Y103.831 E13.08661
G1 X94.511 Y103.004 E13.11664
G1 X94.945 Y102.211 E13.14671
G1 X95.447 Y101.461 E13.17672
G1 X96.013 Y100.757 E13.20677
G1 X96.64 Y100.107 E13.23681
M204 S2000
G1 F2400 E12.43681
;MESH:nor2.stl
G0 F8250 X103.706 Y106.835
G0 X104.052 Y112.247
M204 S500
;TYPE:WALL-OUTER
G1 F2400 E13.23681
G1 F473.4 X103.545 Y112.247 E13.25818
G1 X103.545 Y107.753 E13.44763
G1 X104.051 Y107.753 E13.46897
G1 X104.052 Y112.247 E13.65842
M204 S2000
G1 F2400 E12.85842
G0 F8250 X103.835 Y112.03
G0 X103.89 Y107.914
G0 X104.969 Y107.913
G0 X114.894 Y107.709
G0 X115.766 Y107.708
M204 S500
G1 F2400 E13.65842
G1 F575.5 X115.767 Y112.292 E13.81737
M204 S2000
G1 F2400 E13.01737
;MESH:NONMESH
G0 F300 X115.767 Y112.292 Z0.6
G0 F8250 X114.894 Y112.293
G0 X96.64 Y100.107
;TIME_ELAPSED:29.322669
;LAYER:2
M204 S500
;TYPE:SKIRT
G1 F2400 E13.81737
G1 F600 X97.321 Y99.514 E13.8474
G1 X98.053 Y98.985 E13.87744
G1 X98.828 Y98.521 E13.90748
G1 X99.641 Y98.129 E13.9375
G1 X100.486 Y97.809 E13.96755
G1 X101.356 Y97.566 E13.9976
G1 X102.244 Y97.401 E14.02764
G1 X103.142 Y97.314 E14.05765
G1 X103.82 Y97.302 E14.0802
G1 X104.417 Y97.311 E14.10006
G1 X105.318 Y97.365 E14.13008
G1 X106.212 Y97.498 E14.16014
G1 X107.089 Y97.709 E14.19014
G1 X107.945 Y97.998 E14.22019
G1 X108.772 Y98.361 E14.25023
G1 X109.564 Y98.796 E14.28028
G1 X110.314 Y99.299 E14.31032
G1 X111.016 Y99.866 E14.34033
G1 X111.666 Y100.493 E14.37037
G1 X112.258 Y101.176 E14.40043
G1 X112.787 Y101.908 E14.43047
G1 X113.249 Y102.684 E14.46051
G1 X113.641 Y103.497 E14.49053
G1 X113.959 Y104.343 E14.52059
G1 X114.201 Y105.213 E14.55063
G1 X114.365 Y106.101 E14.58066
G1 X114.459 Y107.221 E14.61804
G1 X114.472 Y107.824 E14.6381
G1 X114.473 Y111.804 E14.77048
G1 X114.463 Y112.624 E14.79775
G1 X114.411 Y113.526 E14.8278
G1 X114.28 Y114.42 E14.85786
G1 X114.07 Y115.298 E14.88788
G1 X113.783 Y116.154 E14.91791
G1 X113.422 Y116.982 E14.94795
G1 X112.988 Y117.774 E14.97799
G1 X112.487 Y118.525 E15.00802
G1 X111.921 Y119.229 E15.03806
G1 X111.295 Y119.88 E15.0681
G1 X110.613 Y120.473 E15.09816
G1 X109.883 Y121.003 E15.12816
G1 X109.107 Y121.467 E15.15824
G1 X108.294 Y121.86 E15.18827
G1 X107.45 Y122.18 E15.21829
G1 X106.58 Y122.424 E15.24834
G1 X105.693 Y122.589 E15.27835
G1 X104.794 Y122.676 E15.30839
G1 X104.281 Y122.69 E15.32546
G1 X103.684 Y122.691 E15.34532
G1 X102.782 Y122.653 E15.37534
G1 X101.886 Y122.534 E15.40541
G1 X101.005 Y122.338 E15.43543
G1 X100.145 Y122.063 E15.46546
G1 X99.312 Y121.714 E15.4955
G1 X98.513 Y121.293 E15.52553
G1 X97.755 Y120.803 E15.55555
G1 X97.043 Y120.247 E15.5856
G1 X96.382 Y119.631 E15.61565
G1 X95.779 Y118.958 E15.64571
G1 X95.238 Y118.235 E15.67574
G1 X94.763 Y117.467 E15.70578
G1 X94.358 Y116.66 E15.73581
G1 X94.026 Y115.82 E15.76585
G1 X93.769 Y114.955 E15.79586
G1 X93.59 Y114.069 E15.82592
G1 X93.47 Y112.745 E15.87014
G1 X93.458 Y112.132 E15.89053
G1 X93.457 Y108.157 E16.02274
G1 X93.467 Y107.36 E16.04925
G1 X93.519 Y106.459 E16.07927
G1 X93.651 Y105.565 E16.10933
G1 X93.862 Y104.687 E16.13936
G1 X94.149 Y103.831 E16.16939
G1 X94.511 Y103.004 E16.19942
G1 X94.945 Y102.211 E16.22948
G1 X95.447 Y101.461 E16.2595
G1 X96.013 Y100.757 E16.28954
G1 X96.64 Y100.107 E16.31958
